4.cube
LUT_3D_SIZE 6
0.000000 0.000000 0.000000
0.258142 0.000000 0.000000
0.485638 0.000000 0.000000
0.694900 0.000000 0.000000
0.893421 0.000000 0.000000
1.000000 0.000000 0.000000
0.000000 0.244867 0.000000
0.258142 0.244867 0.000000
0.485638 0.244867 0.000000
0.694900 0.244867 0.000000
0.893421 0.244867 0.000000
1.000000 0.244867 0.000000
0.000000 0.469963 0.000000
0.258142 0.469963 0.000000
0.485638 0.469963 0.000000
0.694900 0.469963 0.000000
0.893421 0.469963 0.000000
1.000000 0.469963 0.000000
0.000000 0.680135 0.000000
0.258142 0.680135 0.000000
0.485638 0.680135 0.000000
0.694900 0.680135 0.000000
0.893421 0.680135 0.000000
1.000000 0.680135 0.000000
0.000000 0.881393 0.000000
0.258142 0.881393 0.000000
0.485638 0.881393 0.000000
0.694900 0.881393 0.000000
0.893421 0.881393 0.000000
1.000000 0.881393 0.000000
0.000000 1.000000 0.000000
0.258142 1.000000 0.000000
0.485638 1.000000 0.000000
0.694900 1.000000 0.000000
0.893421 1.000000 0.000000
1.000000 1.000000 0.000000
0.000000 0.000000 0.253497
0.258142 0.000000 0.253497
0.485638 0.000000 0.253497
0.694900 0.000000 0.253497
0.893421 0.000000 0.253497
1.000000 0.000000 0.253497
0.000000 0.244867 0.253497
0.258142 0.244867 0.253497
0.485638 0.244867 0.253497
0.694900 0.244867 0.253497
0.893421 0.244867 0.253497
1.000000 0.244867 0.253497
0.000000 0.469963 0.253497
0.258142 0.469963 0.253497
0.485638 0.469963 0.253497
0.694900 0.469963 0.253497
0.893421 0.469963 0.253497
1.000000 0.469963 0.253497
0.000000 0.680135 0.253497
0.258142 0.680135 0.253497
0.485638 0.680135 0.253497
0.694900 0.680135 0.253497
0.893421 0.680135 0.253497
1.000000 0.680135 0.253497
0.000000 0.881393 0.253497
0.258142 0.881393 0.253497
0.485638 0.881393 0.253497
0.694900 0.881393 0.253497
0.893421 0.881393 0.253497
1.000000 0.881393 0.253497
0.000000 1.000000 0.253497
0.258142 1.000000 0.253497
0.485638 1.000000 0.253497
0.694900 1.000000 0.253497
0.893421 1.000000 0.253497
1.000000 1.000000 0.253497
0.000000 0.000000 0.479393
0.258142 0.000000 0.479393
0.485638 0.000000 0.479393
0.694900 0.000000 0.479393
0.893421 0.000000 0.479393
1.000000 0.000000 0.479393
0.000000 0.244867 0.479393
0.258142 0.244867 0.479393
0.485638 0.244867 0.479393
0.694900 0.244867 0.479393
0.893421 0.244867 0.479393
1.000000 0.244867 0.479393
0.000000 0.469963 0.479393
0.258142 0.469963 0.479393
0.485638 0.469963 0.479393
0.694900 0.469963 0.479393
0.893421 0.469963 0.479393
1.000000 0.469963 0.479393
0.000000 0.680135 0.479393
0.258142 0.680135 0.479393
0.485638 0.680135 0.479393
0.694900 0.680135 0.479393
0.893421 0.680135 0.479393
1.000000 0.680135 0.479393
0.000000 0.881393 0.479393
0.258142 0.881393 0.479393
0.485638 0.881393 0.479393
0.694900 0.881393 0.479393
0.893421 0.881393 0.479393
1.000000 0.881393 0.479393
0.000000 1.000000 0.479393
0.258142 1.000000 0.479393
0.485638 1.000000 0.479393
0.694900 1.000000 0.479393
0.893421 1.000000 0.479393
1.000000 1.000000 0.479393
0.000000 0.000000 0.687978
0.258142 0.000000 0.687978
0.485638 0.000000 0.687978
0.694900 0.000000 0.687978
0.893421 0.000000 0.687978
1.000000 0.000000 0.687978
0.000000 0.244867 0.687978
0.258142 0.244867 0.687978
0.485638 0.244867 0.687978
0.694900 0.244867 0.687978
0.893421 0.244867 0.687978
1.000000 0.244867 0.687978
0.000000 0.469963 0.687978
0.258142 0.469963 0.687978
0.485638 0.469963 0.687978
0.694900 0.469963 0.687978
0.893421 0.469963 0.687978
1.000000 0.469963 0.687978
0.000000 0.680135 0.687978
0.258142 0.680135 0.687978
0.485638 0.680135 0.687978
0.694900 0.680135 0.687978
0.893421 0.680135 0.687978
1.000000 0.680135 0.687978
0.000000 0.881393 0.687978
0.258142 0.881393 0.687978
0.485638 0.881393 0.687978
0.694900 0.881393 0.687978
0.893421 0.881393 0.687978
1.000000 0.881393 0.687978
0.000000 1.000000 0.687978
0.258142 1.000000 0.687978
0.485638 1.000000 0.687978
0.694900 1.000000 0.687978
0.893421 1.000000 0.687978
1.000000 1.000000 0.687978
0.000000 0.000000 0.886360
0.258142 0.000000 0.886360
0.485638 0.000000 0.886360
0.694900 0.000000 0.886360
0.893421 0.000000 0.886360
1.000000 0.000000 0.886360
0.000000 0.244867 0.886360
0.258142 0.244867 0.886360
0.485638 0.244867 0.886360
0.694900 0.244867 0.886360
0.893421 0.244867 0.886360
1.000000 0.244867 0.886360
0.000000 0.469963 0.886360
0.258142 0.469963 0.886360
0.485638 0.469963 0.886360
0.694900 0.469963 0.886360
0.893421 0.469963 0.886360
1.000000 0.469963 0.886360
0.000000 0.680135 0.886360
0.258142 0.680135 0.886360
0.485638 0.680135 0.886360
0.694900 0.680135 0.886360
0.893421 0.680135 0.886360
1.000000 0.680135 0.886360
0.000000 0.881393 0.886360
0.258142 0.881393 0.886360
0.485638 0.881393 0.886360
0.694900 0.881393 0.886360
0.893421 0.881393 0.886360
1.000000 0.881393 0.886360
0.000000 1.000000 0.886360
0.258142 1.000000 0.886360
0.485638 1.000000 0.886360
0.694900 1.000000 0.886360
0.893421 1.000000 0.886360
1.000000 1.000000 0.886360
0.000000 0.000000 1.000000
0.258142 0.000000 1.000000
0.485638 0.000000 1.000000
0.694900 0.000000 1.000000
0.893421 0.000000 1.000000
1.000000 0.000000 1.000000
0.000000 0.244867 1.000000
0.258142 0.244867 1.000000
0.485638 0.244867 1.000000
0.694900 0.244867 1.000000
0.893421 0.244867 1.000000
1.000000 0.244867 1.000000
0.000000 0.469963 1.000000
0.258142 0.469963 1.000000
0.485638 0.469963 1.000000
0.694900 0.469963 1.000000
0.893421 0.469963 1.000000
1.000000 0.469963 1.000000
0.000000 0.680135 1.000000
0.258142 0.680135 1.000000
0.485638 0.680135 1.000000
0.694900 0.680135 1.000000
0.893421 0.680135 1.000000
1.000000 0.680135 1.000000
0.000000 0.881393 1.000000
0.258142 0.881393 1.000000
0.485638 0.881393 1.000000
0.694900 0.881393 1.000000
0.893421 0.881393 1.000000
1.000000 0.881393 1.000000
0.000000 1.000000 1.000000
0.258142 1.000000 1.000000
0.485638 1.000000 1.000000
0.694900 1.000000 1.000000
0.893421 1.000000 1.000000
1.000000 1.000000 1.000000
