4.cube
LUT_3D_SIZE 16
0.000000 0.000000 0.000000
0.086759 0.000000 0.000000
0.174795 0.000000 0.000000
0.258142 0.000000 0.000000
0.336869 0.000000 0.000000
0.412426 0.000000 0.000000
0.485638 0.000000 0.000000
0.556900 0.000000 0.000000
0.626559 0.000000 0.000000
0.694900 0.000000 0.000000
0.762050 0.000000 0.000000
0.828187 0.000000 0.000000
0.893421 0.000000 0.000000
0.952375 0.000000 0.000000
0.988227 0.000000 0.000000
1.000000 0.000000 0.000000
0.000000 0.079508 0.000000
0.086759 0.079508 0.000000
0.174795 0.079508 0.000000
0.258142 0.079508 0.000000
0.336869 0.079508 0.000000
0.412426 0.079508 0.000000
0.485638 0.079508 0.000000
0.556900 0.079508 0.000000
0.626559 0.079508 0.000000
0.694900 0.079508 0.000000
0.762050 0.079508 0.000000
0.828187 0.079508 0.000000
0.893421 0.079508 0.000000
0.952375 0.079508 0.000000
0.988227 0.079508 0.000000
1.000000 0.079508 0.000000
0.000000 0.163777 0.000000
0.086759 0.163777 0.000000
0.174795 0.163777 0.000000
0.258142 0.163777 0.000000
0.336869 0.163777 0.000000
0.412426 0.163777 0.000000
0.485638 0.163777 0.000000
0.556900 0.163777 0.000000
0.626559 0.163777 0.000000
0.694900 0.163777 0.000000
0.762050 0.163777 0.000000
0.828187 0.163777 0.000000
0.893421 0.163777 0.000000
0.952375 0.163777 0.000000
0.988227 0.163777 0.000000
1.000000 0.163777 0.000000
0.000000 0.244867 0.000000
0.086759 0.244867 0.000000
0.174795 0.244867 0.000000
0.258142 0.244867 0.000000
0.336869 0.244867 0.000000
0.412426 0.244867 0.000000
0.485638 0.244867 0.000000
0.556900 0.244867 0.000000
0.626559 0.244867 0.000000
0.694900 0.244867 0.000000
0.762050 0.244867 0.000000
0.828187 0.244867 0.000000
0.893421 0.244867 0.000000
0.952375 0.244867 0.000000
0.988227 0.244867 0.000000
1.000000 0.244867 0.000000
0.000000 0.322238 0.000000
0.086759 0.322238 0.000000
0.174795 0.322238 0.000000
0.258142 0.322238 0.000000
0.336869 0.322238 0.000000
0.412426 0.322238 0.000000
0.485638 0.322238 0.000000
0.556900 0.322238 0.000000
0.626559 0.322238 0.000000
0.694900 0.322238 0.000000
0.762050 0.322238 0.000000
0.828187 0.322238 0.000000
0.893421 0.322238 0.000000
0.952375 0.322238 0.000000
0.988227 0.322238 0.000000
1.000000 0.322238 0.000000
0.000000 0.397075 0.000000
0.086759 0.397075 0.000000
0.174795 0.397075 0.000000
0.258142 0.397075 0.000000
0.336869 0.397075 0.000000
0.412426 0.397075 0.000000
0.485638 0.397075 0.000000
0.556900 0.397075 0.000000
0.626559 0.397075 0.000000
0.694900 0.397075 0.000000
0.762050 0.397075 0.000000
0.828187 0.397075 0.000000
0.893421 0.397075 0.000000
0.952375 0.397075 0.000000
0.988227 0.397075 0.000000
1.000000 0.397075 0.000000
0.000000 0.469963 0.000000
0.086759 0.469963 0.000000
0.174795 0.469963 0.000000
0.258142 0.469963 0.000000
0.336869 0.469963 0.000000
0.412426 0.469963 0.000000
0.485638 0.469963 0.000000
0.556900 0.469963 0.000000
0.626559 0.469963 0.000000
0.694900 0.469963 0.000000
0.762050 0.469963 0.000000
0.828187 0.469963 0.000000
0.893421 0.469963 0.000000
0.952375 0.469963 0.000000
0.988227 0.469963 0.000000
1.000000 0.469963 0.000000
0.000000 0.541293 0.000000
0.086759 0.541293 0.000000
0.174795 0.541293 0.000000
0.258142 0.541293 0.000000
0.336869 0.541293 0.000000
0.412426 0.541293 0.000000
0.485638 0.541293 0.000000
0.556900 0.541293 0.000000
0.626559 0.541293 0.000000
0.694900 0.541293 0.000000
0.762050 0.541293 0.000000
0.828187 0.541293 0.000000
0.893421 0.541293 0.000000
0.952375 0.541293 0.000000
0.988227 0.541293 0.000000
1.000000 0.541293 0.000000
0.000000 0.611222 0.000000
0.086759 0.611222 0.000000
0.174795 0.611222 0.000000
0.258142 0.611222 0.000000
0.336869 0.611222 0.000000
0.412426 0.611222 0.000000
0.485638 0.611222 0.000000
0.556900 0.611222 0.000000
0.626559 0.611222 0.000000
0.694900 0.611222 0.000000
0.762050 0.611222 0.000000
0.828187 0.611222 0.000000
0.893421 0.611222 0.000000
0.952375 0.611222 0.000000
0.988227 0.611222 0.000000
1.000000 0.611222 0.000000
0.000000 0.680135 0.000000
0.086759 0.680135 0.000000
0.174795 0.680135 0.000000
0.258142 0.680135 0.000000
0.336869 0.680135 0.000000
0.412426 0.680135 0.000000
0.485638 0.680135 0.000000
0.556900 0.680135 0.000000
0.626559 0.680135 0.000000
0.694900 0.680135 0.000000
0.762050 0.680135 0.000000
0.828187 0.680135 0.000000
0.893421 0.680135 0.000000
0.952375 0.680135 0.000000
0.988227 0.680135 0.000000
1.000000 0.680135 0.000000
0.000000 0.748007 0.000000
0.086759 0.748007 0.000000
0.174795 0.748007 0.000000
0.258142 0.748007 0.000000
0.336869 0.748007 0.000000
0.412426 0.748007 0.000000
0.485638 0.748007 0.000000
0.556900 0.748007 0.000000
0.626559 0.748007 0.000000
0.694900 0.748007 0.000000
0.762050 0.748007 0.000000
0.828187 0.748007 0.000000
0.893421 0.748007 0.000000
0.952375 0.748007 0.000000
0.988227 0.748007 0.000000
1.000000 0.748007 0.000000
0.000000 0.815092 0.000000
0.086759 0.815092 0.000000
0.174795 0.815092 0.000000
0.258142 0.815092 0.000000
0.336869 0.815092 0.000000
0.412426 0.815092 0.000000
0.485638 0.815092 0.000000
0.556900 0.815092 0.000000
0.626559 0.815092 0.000000
0.694900 0.815092 0.000000
0.762050 0.815092 0.000000
0.828187 0.815092 0.000000
0.893421 0.815092 0.000000
0.952375 0.815092 0.000000
0.988227 0.815092 0.000000
1.000000 0.815092 0.000000
0.000000 0.881393 0.000000
0.086759 0.881393 0.000000
0.174795 0.881393 0.000000
0.258142 0.881393 0.000000
0.336869 0.881393 0.000000
0.412426 0.881393 0.000000
0.485638 0.881393 0.000000
0.556900 0.881393 0.000000
0.626559 0.881393 0.000000
0.694900 0.881393 0.000000
0.762050 0.881393 0.000000
0.828187 0.881393 0.000000
0.893421 0.881393 0.000000
0.952375 0.881393 0.000000
0.988227 0.881393 0.000000
1.000000 0.881393 0.000000
0.000000 0.943758 0.000000
0.086759 0.943758 0.000000
0.174795 0.943758 0.000000
0.258142 0.943758 0.000000
0.336869 0.943758 0.000000
0.412426 0.943758 0.000000
0.485638 0.943758 0.000000
0.556900 0.943758 0.000000
0.626559 0.943758 0.000000
0.694900 0.943758 0.000000
0.762050 0.943758 0.000000
0.828187 0.943758 0.000000
0.893421 0.943758 0.000000
0.952375 0.943758 0.000000
0.988227 0.943758 0.000000
1.000000 0.943758 0.000000
0.000000 0.984790 0.000000
0.086759 0.984790 0.000000
0.174795 0.984790 0.000000
0.258142 0.984790 0.000000
0.336869 0.984790 0.000000
0.412426 0.984790 0.000000
0.485638 0.984790 0.000000
0.556900 0.984790 0.000000
0.626559 0.984790 0.000000
0.694900 0.984790 0.000000
0.762050 0.984790 0.000000
0.828187 0.984790 0.000000
0.893421 0.984790 0.000000
0.952375 0.984790 0.000000
0.988227 0.984790 0.000000
1.000000 0.984790 0.000000
0.000000 1.000000 0.000000
0.086759 1.000000 0.000000
0.174795 1.000000 0.000000
0.258142 1.000000 0.000000
0.336869 1.000000 0.000000
0.412426 1.000000 0.000000
0.485638 1.000000 0.000000
0.556900 1.000000 0.000000
0.626559 1.000000 0.000000
0.694900 1.000000 0.000000
0.762050 1.000000 0.000000
0.828187 1.000000 0.000000
0.893421 1.000000 0.000000
0.952375 1.000000 0.000000
0.988227 1.000000 0.000000
1.000000 1.000000 0.000000
0.000000 0.000000 0.084438
0.086759 0.000000 0.084438
0.174795 0.000000 0.084438
0.258142 0.000000 0.084438
0.336869 0.000000 0.084438
0.412426 0.000000 0.084438
0.485638 0.000000 0.084438
0.556900 0.000000 0.084438
0.626559 0.000000 0.084438
0.694900 0.000000 0.084438
0.762050 0.000000 0.084438
0.828187 0.000000 0.084438
0.893421 0.000000 0.084438
0.952375 0.000000 0.084438
0.988227 0.000000 0.084438
1.000000 0.000000 0.084438
0.000000 0.079508 0.084438
0.086759 0.079508 0.084438
0.174795 0.079508 0.084438
0.258142 0.079508 0.084438
0.336869 0.079508 0.084438
0.412426 0.079508 0.084438
0.485638 0.079508 0.084438
0.556900 0.079508 0.084438
0.626559 0.079508 0.084438
0.694900 0.079508 0.084438
0.762050 0.079508 0.084438
0.828187 0.079508 0.084438
0.893421 0.079508 0.084438
0.952375 0.079508 0.084438
0.988227 0.079508 0.084438
1.000000 0.079508 0.084438
0.000000 0.163777 0.084438
0.086759 0.163777 0.084438
0.174795 0.163777 0.084438
0.258142 0.163777 0.084438
0.336869 0.163777 0.084438
0.412426 0.163777 0.084438
0.485638 0.163777 0.084438
0.556900 0.163777 0.084438
0.626559 0.163777 0.084438
0.694900 0.163777 0.084438
0.762050 0.163777 0.084438
0.828187 0.163777 0.084438
0.893421 0.163777 0.084438
0.952375 0.163777 0.084438
0.988227 0.163777 0.084438
1.000000 0.163777 0.084438
0.000000 0.244867 0.084438
0.086759 0.244867 0.084438
0.174795 0.244867 0.084438
0.258142 0.244867 0.084438
0.336869 0.244867 0.084438
0.412426 0.244867 0.084438
0.485638 0.244867 0.084438
0.556900 0.244867 0.084438
0.626559 0.244867 0.084438
0.694900 0.244867 0.084438
0.762050 0.244867 0.084438
0.828187 0.244867 0.084438
0.893421 0.244867 0.084438
0.952375 0.244867 0.084438
0.988227 0.244867 0.084438
1.000000 0.244867 0.084438
0.000000 0.322238 0.084438
0.086759 0.322238 0.084438
0.174795 0.322238 0.084438
0.258142 0.322238 0.084438
0.336869 0.322238 0.084438
0.412426 0.322238 0.084438
0.485638 0.322238 0.084438
0.556900 0.322238 0.084438
0.626559 0.322238 0.084438
0.694900 0.322238 0.084438
0.762050 0.322238 0.084438
0.828187 0.322238 0.084438
0.893421 0.322238 0.084438
0.952375 0.322238 0.084438
0.988227 0.322238 0.084438
1.000000 0.322238 0.084438
0.000000 0.397075 0.084438
0.086759 0.397075 0.084438
0.174795 0.397075 0.084438
0.258142 0.397075 0.084438
0.336869 0.397075 0.084438
0.412426 0.397075 0.084438
0.485638 0.397075 0.084438
0.556900 0.397075 0.084438
0.626559 0.397075 0.084438
0.694900 0.397075 0.084438
0.762050 0.397075 0.084438
0.828187 0.397075 0.084438
0.893421 0.397075 0.084438
0.952375 0.397075 0.084438
0.988227 0.397075 0.084438
1.000000 0.397075 0.084438
0.000000 0.469963 0.084438
0.086759 0.469963 0.084438
0.174795 0.469963 0.084438
0.258142 0.469963 0.084438
0.336869 0.469963 0.084438
0.412426 0.469963 0.084438
0.485638 0.469963 0.084438
0.556900 0.469963 0.084438
0.626559 0.469963 0.084438
0.694900 0.469963 0.084438
0.762050 0.469963 0.084438
0.828187 0.469963 0.084438
0.893421 0.469963 0.084438
0.952375 0.469963 0.084438
0.988227 0.469963 0.084438
1.000000 0.469963 0.084438
0.000000 0.541293 0.084438
0.086759 0.541293 0.084438
0.174795 0.541293 0.084438
0.258142 0.541293 0.084438
0.336869 0.541293 0.084438
0.412426 0.541293 0.084438
0.485638 0.541293 0.084438
0.556900 0.541293 0.084438
0.626559 0.541293 0.084438
0.694900 0.541293 0.084438
0.762050 0.541293 0.084438
0.828187 0.541293 0.084438
0.893421 0.541293 0.084438
0.952375 0.541293 0.084438
0.988227 0.541293 0.084438
1.000000 0.541293 0.084438
0.000000 0.611222 0.084438
0.086759 0.611222 0.084438
0.174795 0.611222 0.084438
0.258142 0.611222 0.084438
0.336869 0.611222 0.084438
0.412426 0.611222 0.084438
0.485638 0.611222 0.084438
0.556900 0.611222 0.084438
0.626559 0.611222 0.084438
0.694900 0.611222 0.084438
0.762050 0.611222 0.084438
0.828187 0.611222 0.084438
0.893421 0.611222 0.084438
0.952375 0.611222 0.084438
0.988227 0.611222 0.084438
1.000000 0.611222 0.084438
0.000000 0.680135 0.084438
0.086759 0.680135 0.084438
0.174795 0.680135 0.084438
0.258142 0.680135 0.084438
0.336869 0.680135 0.084438
0.412426 0.680135 0.084438
0.485638 0.680135 0.084438
0.556900 0.680135 0.084438
0.626559 0.680135 0.084438
0.694900 0.680135 0.084438
0.762050 0.680135 0.084438
0.828187 0.680135 0.084438
0.893421 0.680135 0.084438
0.952375 0.680135 0.084438
0.988227 0.680135 0.084438
1.000000 0.680135 0.084438
0.000000 0.748007 0.084438
0.086759 0.748007 0.084438
0.174795 0.748007 0.084438
0.258142 0.748007 0.084438
0.336869 0.748007 0.084438
0.412426 0.748007 0.084438
0.485638 0.748007 0.084438
0.556900 0.748007 0.084438
0.626559 0.748007 0.084438
0.694900 0.748007 0.084438
0.762050 0.748007 0.084438
0.828187 0.748007 0.084438
0.893421 0.748007 0.084438
0.952375 0.748007 0.084438
0.988227 0.748007 0.084438
1.000000 0.748007 0.084438
0.000000 0.815092 0.084438
0.086759 0.815092 0.084438
0.174795 0.815092 0.084438
0.258142 0.815092 0.084438
0.336869 0.815092 0.084438
0.412426 0.815092 0.084438
0.485638 0.815092 0.084438
0.556900 0.815092 0.084438
0.626559 0.815092 0.084438
0.694900 0.815092 0.084438
0.762050 0.815092 0.084438
0.828187 0.815092 0.084438
0.893421 0.815092 0.084438
0.952375 0.815092 0.084438
0.988227 0.815092 0.084438
1.000000 0.815092 0.084438
0.000000 0.881393 0.084438
0.086759 0.881393 0.084438
0.174795 0.881393 0.084438
0.258142 0.881393 0.084438
0.336869 0.881393 0.084438
0.412426 0.881393 0.084438
0.485638 0.881393 0.084438
0.556900 0.881393 0.084438
0.626559 0.881393 0.084438
0.694900 0.881393 0.084438
0.762050 0.881393 0.084438
0.828187 0.881393 0.084438
0.893421 0.881393 0.084438
0.952375 0.881393 0.084438
0.988227 0.881393 0.084438
1.000000 0.881393 0.084438
0.000000 0.943758 0.084438
0.086759 0.943758 0.084438
0.174795 0.943758 0.084438
0.258142 0.943758 0.084438
0.336869 0.943758 0.084438
0.412426 0.943758 0.084438
0.485638 0.943758 0.084438
0.556900 0.943758 0.084438
0.626559 0.943758 0.084438
0.694900 0.943758 0.084438
0.762050 0.943758 0.084438
0.828187 0.943758 0.084438
0.893421 0.943758 0.084438
0.952375 0.943758 0.084438
0.988227 0.943758 0.084438
1.000000 0.943758 0.084438
0.000000 0.984790 0.084438
0.086759 0.984790 0.084438
0.174795 0.984790 0.084438
0.258142 0.984790 0.084438
0.336869 0.984790 0.084438
0.412426 0.984790 0.084438
0.485638 0.984790 0.084438
0.556900 0.984790 0.084438
0.626559 0.984790 0.084438
0.694900 0.984790 0.084438
0.762050 0.984790 0.084438
0.828187 0.984790 0.084438
0.893421 0.984790 0.084438
0.952375 0.984790 0.084438
0.988227 0.984790 0.084438
1.000000 0.984790 0.084438
0.000000 1.000000 0.084438
0.086759 1.000000 0.084438
0.174795 1.000000 0.084438
0.258142 1.000000 0.084438
0.336869 1.000000 0.084438
0.412426 1.000000 0.084438
0.485638 1.000000 0.084438
0.556900 1.000000 0.084438
0.626559 1.000000 0.084438
0.694900 1.000000 0.084438
0.762050 1.000000 0.084438
0.828187 1.000000 0.084438
0.893421 1.000000 0.084438
0.952375 1.000000 0.084438
0.988227 1.000000 0.084438
1.000000 1.000000 0.084438
0.000000 0.000000 0.171106
0.086759 0.000000 0.171106
0.174795 0.000000 0.171106
0.258142 0.000000 0.171106
0.336869 0.000000 0.171106
0.412426 0.000000 0.171106
0.485638 0.000000 0.171106
0.556900 0.000000 0.171106
0.626559 0.000000 0.171106
0.694900 0.000000 0.171106
0.762050 0.000000 0.171106
0.828187 0.000000 0.171106
0.893421 0.000000 0.171106
0.952375 0.000000 0.171106
0.988227 0.000000 0.171106
1.000000 0.000000 0.171106
0.000000 0.079508 0.171106
0.086759 0.079508 0.171106
0.174795 0.079508 0.171106
0.258142 0.079508 0.171106
0.336869 0.079508 0.171106
0.412426 0.079508 0.171106
0.485638 0.079508 0.171106
0.556900 0.079508 0.171106
0.626559 0.079508 0.171106
0.694900 0.079508 0.171106
0.762050 0.079508 0.171106
0.828187 0.079508 0.171106
0.893421 0.079508 0.171106
0.952375 0.079508 0.171106
0.988227 0.079508 0.171106
1.000000 0.079508 0.171106
0.000000 0.163777 0.171106
0.086759 0.163777 0.171106
0.174795 0.163777 0.171106
0.258142 0.163777 0.171106
0.336869 0.163777 0.171106
0.412426 0.163777 0.171106
0.485638 0.163777 0.171106
0.556900 0.163777 0.171106
0.626559 0.163777 0.171106
0.694900 0.163777 0.171106
0.762050 0.163777 0.171106
0.828187 0.163777 0.171106
0.893421 0.163777 0.171106
0.952375 0.163777 0.171106
0.988227 0.163777 0.171106
1.000000 0.163777 0.171106
0.000000 0.244867 0.171106
0.086759 0.244867 0.171106
0.174795 0.244867 0.171106
0.258142 0.244867 0.171106
0.336869 0.244867 0.171106
0.412426 0.244867 0.171106
0.485638 0.244867 0.171106
0.556900 0.244867 0.171106
0.626559 0.244867 0.171106
0.694900 0.244867 0.171106
0.762050 0.244867 0.171106
0.828187 0.244867 0.171106
0.893421 0.244867 0.171106
0.952375 0.244867 0.171106
0.988227 0.244867 0.171106
1.000000 0.244867 0.171106
0.000000 0.322238 0.171106
0.086759 0.322238 0.171106
0.174795 0.322238 0.171106
0.258142 0.322238 0.171106
0.336869 0.322238 0.171106
0.412426 0.322238 0.171106
0.485638 0.322238 0.171106
0.556900 0.322238 0.171106
0.626559 0.322238 0.171106
0.694900 0.322238 0.171106
0.762050 0.322238 0.171106
0.828187 0.322238 0.171106
0.893421 0.322238 0.171106
0.952375 0.322238 0.171106
0.988227 0.322238 0.171106
1.000000 0.322238 0.171106
0.000000 0.397075 0.171106
0.086759 0.397075 0.171106
0.174795 0.397075 0.171106
0.258142 0.397075 0.171106
0.336869 0.397075 0.171106
0.412426 0.397075 0.171106
0.485638 0.397075 0.171106
0.556900 0.397075 0.171106
0.626559 0.397075 0.171106
0.694900 0.397075 0.171106
0.762050 0.397075 0.171106
0.828187 0.397075 0.171106
0.893421 0.397075 0.171106
0.952375 0.397075 0.171106
0.988227 0.397075 0.171106
1.000000 0.397075 0.171106
0.000000 0.469963 0.171106
0.086759 0.469963 0.171106
0.174795 0.469963 0.171106
0.258142 0.469963 0.171106
0.336869 0.469963 0.171106
0.412426 0.469963 0.171106
0.485638 0.469963 0.171106
0.556900 0.469963 0.171106
0.626559 0.469963 0.171106
0.694900 0.469963 0.171106
0.762050 0.469963 0.171106
0.828187 0.469963 0.171106
0.893421 0.469963 0.171106
0.952375 0.469963 0.171106
0.988227 0.469963 0.171106
1.000000 0.469963 0.171106
0.000000 0.541293 0.171106
0.086759 0.541293 0.171106
0.174795 0.541293 0.171106
0.258142 0.541293 0.171106
0.336869 0.541293 0.171106
0.412426 0.541293 0.171106
0.485638 0.541293 0.171106
0.556900 0.541293 0.171106
0.626559 0.541293 0.171106
0.694900 0.541293 0.171106
0.762050 0.541293 0.171106
0.828187 0.541293 0.171106
0.893421 0.541293 0.171106
0.952375 0.541293 0.171106
0.988227 0.541293 0.171106
1.000000 0.541293 0.171106
0.000000 0.611222 0.171106
0.086759 0.611222 0.171106
0.174795 0.611222 0.171106
0.258142 0.611222 0.171106
0.336869 0.611222 0.171106
0.412426 0.611222 0.171106
0.485638 0.611222 0.171106
0.556900 0.611222 0.171106
0.626559 0.611222 0.171106
0.694900 0.611222 0.171106
0.762050 0.611222 0.171106
0.828187 0.611222 0.171106
0.893421 0.611222 0.171106
0.952375 0.611222 0.171106
0.988227 0.611222 0.171106
1.000000 0.611222 0.171106
0.000000 0.680135 0.171106
0.086759 0.680135 0.171106
0.174795 0.680135 0.171106
0.258142 0.680135 0.171106
0.336869 0.680135 0.171106
0.412426 0.680135 0.171106
0.485638 0.680135 0.171106
0.556900 0.680135 0.171106
0.626559 0.680135 0.171106
0.694900 0.680135 0.171106
0.762050 0.680135 0.171106
0.828187 0.680135 0.171106
0.893421 0.680135 0.171106
0.952375 0.680135 0.171106
0.988227 0.680135 0.171106
1.000000 0.680135 0.171106
0.000000 0.748007 0.171106
0.086759 0.748007 0.171106
0.174795 0.748007 0.171106
0.258142 0.748007 0.171106
0.336869 0.748007 0.171106
0.412426 0.748007 0.171106
0.485638 0.748007 0.171106
0.556900 0.748007 0.171106
0.626559 0.748007 0.171106
0.694900 0.748007 0.171106
0.762050 0.748007 0.171106
0.828187 0.748007 0.171106
0.893421 0.748007 0.171106
0.952375 0.748007 0.171106
0.988227 0.748007 0.171106
1.000000 0.748007 0.171106
0.000000 0.815092 0.171106
0.086759 0.815092 0.171106
0.174795 0.815092 0.171106
0.258142 0.815092 0.171106
0.336869 0.815092 0.171106
0.412426 0.815092 0.171106
0.485638 0.815092 0.171106
0.556900 0.815092 0.171106
0.626559 0.815092 0.171106
0.694900 0.815092 0.171106
0.762050 0.815092 0.171106
0.828187 0.815092 0.171106
0.893421 0.815092 0.171106
0.952375 0.815092 0.171106
0.988227 0.815092 0.171106
1.000000 0.815092 0.171106
0.000000 0.881393 0.171106
0.086759 0.881393 0.171106
0.174795 0.881393 0.171106
0.258142 0.881393 0.171106
0.336869 0.881393 0.171106
0.412426 0.881393 0.171106
0.485638 0.881393 0.171106
0.556900 0.881393 0.171106
0.626559 0.881393 0.171106
0.694900 0.881393 0.171106
0.762050 0.881393 0.171106
0.828187 0.881393 0.171106
0.893421 0.881393 0.171106
0.952375 0.881393 0.171106
0.988227 0.881393 0.171106
1.000000 0.881393 0.171106
0.000000 0.943758 0.171106
0.086759 0.943758 0.171106
0.174795 0.943758 0.171106
0.258142 0.943758 0.171106
0.336869 0.943758 0.171106
0.412426 0.943758 0.171106
0.485638 0.943758 0.171106
0.556900 0.943758 0.171106
0.626559 0.943758 0.171106
0.694900 0.943758 0.171106
0.762050 0.943758 0.171106
0.828187 0.943758 0.171106
0.893421 0.943758 0.171106
0.952375 0.943758 0.171106
0.988227 0.943758 0.171106
1.000000 0.943758 0.171106
0.000000 0.984790 0.171106
0.086759 0.984790 0.171106
0.174795 0.984790 0.171106
0.258142 0.984790 0.171106
0.336869 0.984790 0.171106
0.412426 0.984790 0.171106
0.485638 0.984790 0.171106
0.556900 0.984790 0.171106
0.626559 0.984790 0.171106
0.694900 0.984790 0.171106
0.762050 0.984790 0.171106
0.828187 0.984790 0.171106
0.893421 0.984790 0.171106
0.952375 0.984790 0.171106
0.988227 0.984790 0.171106
1.000000 0.984790 0.171106
0.000000 1.000000 0.171106
0.086759 1.000000 0.171106
0.174795 1.000000 0.171106
0.258142 1.000000 0.171106
0.336869 1.000000 0.171106
0.412426 1.000000 0.171106
0.485638 1.000000 0.171106
0.556900 1.000000 0.171106
0.626559 1.000000 0.171106
0.694900 1.000000 0.171106
0.762050 1.000000 0.171106
0.828187 1.000000 0.171106
0.893421 1.000000 0.171106
0.952375 1.000000 0.171106
0.988227 1.000000 0.171106
1.000000 1.000000 0.171106
0.000000 0.000000 0.253497
0.086759 0.000000 0.253497
0.174795 0.000000 0.253497
0.258142 0.000000 0.253497
0.336869 0.000000 0.253497
0.412426 0.000000 0.253497
0.485638 0.000000 0.253497
0.556900 0.000000 0.253497
0.626559 0.000000 0.253497
0.694900 0.000000 0.253497
0.762050 0.000000 0.253497
0.828187 0.000000 0.253497
0.893421 0.000000 0.253497
0.952375 0.000000 0.253497
0.988227 0.000000 0.253497
1.000000 0.000000 0.253497
0.000000 0.079508 0.253497
0.086759 0.079508 0.253497
0.174795 0.079508 0.253497
0.258142 0.079508 0.253497
0.336869 0.079508 0.253497
0.412426 0.079508 0.253497
0.485638 0.079508 0.253497
0.556900 0.079508 0.253497
0.626559 0.079508 0.253497
0.694900 0.079508 0.253497
0.762050 0.079508 0.253497
0.828187 0.079508 0.253497
0.893421 0.079508 0.253497
0.952375 0.079508 0.253497
0.988227 0.079508 0.253497
1.000000 0.079508 0.253497
0.000000 0.163777 0.253497
0.086759 0.163777 0.253497
0.174795 0.163777 0.253497
0.258142 0.163777 0.253497
0.336869 0.163777 0.253497
0.412426 0.163777 0.253497
0.485638 0.163777 0.253497
0.556900 0.163777 0.253497
0.626559 0.163777 0.253497
0.694900 0.163777 0.253497
0.762050 0.163777 0.253497
0.828187 0.163777 0.253497
0.893421 0.163777 0.253497
0.952375 0.163777 0.253497
0.988227 0.163777 0.253497
1.000000 0.163777 0.253497
0.000000 0.244867 0.253497
0.086759 0.244867 0.253497
0.174795 0.244867 0.253497
0.258142 0.244867 0.253497
0.336869 0.244867 0.253497
0.412426 0.244867 0.253497
0.485638 0.244867 0.253497
0.556900 0.244867 0.253497
0.626559 0.244867 0.253497
0.694900 0.244867 0.253497
0.762050 0.244867 0.253497
0.828187 0.244867 0.253497
0.893421 0.244867 0.253497
0.952375 0.244867 0.253497
0.988227 0.244867 0.253497
1.000000 0.244867 0.253497
0.000000 0.322238 0.253497
0.086759 0.322238 0.253497
0.174795 0.322238 0.253497
0.258142 0.322238 0.253497
0.336869 0.322238 0.253497
0.412426 0.322238 0.253497
0.485638 0.322238 0.253497
0.556900 0.322238 0.253497
0.626559 0.322238 0.253497
0.694900 0.322238 0.253497
0.762050 0.322238 0.253497
0.828187 0.322238 0.253497
0.893421 0.322238 0.253497
0.952375 0.322238 0.253497
0.988227 0.322238 0.253497
1.000000 0.322238 0.253497
0.000000 0.397075 0.253497
0.086759 0.397075 0.253497
0.174795 0.397075 0.253497
0.258142 0.397075 0.253497
0.336869 0.397075 0.253497
0.412426 0.397075 0.253497
0.485638 0.397075 0.253497
0.556900 0.397075 0.253497
0.626559 0.397075 0.253497
0.694900 0.397075 0.253497
0.762050 0.397075 0.253497
0.828187 0.397075 0.253497
0.893421 0.397075 0.253497
0.952375 0.397075 0.253497
0.988227 0.397075 0.253497
1.000000 0.397075 0.253497
0.000000 0.469963 0.253497
0.086759 0.469963 0.253497
0.174795 0.469963 0.253497
0.258142 0.469963 0.253497
0.336869 0.469963 0.253497
0.412426 0.469963 0.253497
0.485638 0.469963 0.253497
0.556900 0.469963 0.253497
0.626559 0.469963 0.253497
0.694900 0.469963 0.253497
0.762050 0.469963 0.253497
0.828187 0.469963 0.253497
0.893421 0.469963 0.253497
0.952375 0.469963 0.253497
0.988227 0.469963 0.253497
1.000000 0.469963 0.253497
0.000000 0.541293 0.253497
0.086759 0.541293 0.253497
0.174795 0.541293 0.253497
0.258142 0.541293 0.253497
0.336869 0.541293 0.253497
0.412426 0.541293 0.253497
0.485638 0.541293 0.253497
0.556900 0.541293 0.253497
