cube2.cube
LUT_3D_SIZE 6
0.000000 0.000000 0.000000
0.235967 0.000000 0.000000
0.456308 0.000000 0.000000
0.663161 0.000000 0.000000
0.862054 0.000000 0.000000
1.000000 0.000000 0.000000
0.000000 0.244561 0.000000
0.235967 0.244561 0.000000
0.456308 0.244561 0.000000
0.663161 0.244561 0.000000
0.862054 0.244561 0.000000
1.000000 0.244561 0.000000
0.000000 0.465266 0.000000
0.235967 0.465266 0.000000
0.456308 0.465266 0.000000
0.663161 0.465266 0.000000
0.862054 0.465266 0.000000
1.000000 0.465266 0.000000
0.000000 0.669963 0.000000
0.235967 0.669963 0.000000
0.456308 0.669963 0.000000
0.663161 0.669963 0.000000
0.862054 0.669963 0.000000
1.000000 0.669963 0.000000
0.000000 0.865217 0.000000
0.235967 0.865217 0.000000
0.456308 0.865217 0.000000
0.663161 0.865217 0.000000
0.862054 0.865217 0.000000
1.000000 0.865217 0.000000
0.000000 1.000000 0.000000
0.235967 1.000000 0.000000
0.456308 1.000000 0.000000
0.663161 1.000000 0.000000
0.862054 1.000000 0.000000
1.000000 1.000000 0.000000
0.000000 0.000000 0.244561
0.235967 0.000000 0.244561
0.456308 0.000000 0.244561
0.663161 0.000000 0.244561
0.862054 0.000000 0.244561
1.000000 0.000000 0.244561
0.000000 0.244561 0.244561
0.235967 0.244561 0.244561
0.456308 0.244561 0.244561
0.663161 0.244561 0.244561
0.862054 0.244561 0.244561
1.000000 0.244561 0.244561
0.000000 0.465266 0.244561
0.235967 0.465266 0.244561
0.456308 0.465266 0.244561
0.663161 0.465266 0.244561
0.862054 0.465266 0.244561
1.000000 0.465266 0.244561
0.000000 0.669963 0.244561
0.235967 0.669963 0.244561
0.456308 0.669963 0.244561
0.663161 0.669963 0.244561
0.862054 0.669963 0.244561
1.000000 0.669963 0.244561
0.000000 0.865217 0.244561
0.235967 0.865217 0.244561
0.456308 0.865217 0.244561
0.663161 0.865217 0.244561
0.862054 0.865217 0.244561
1.000000 0.865217 0.244561
0.000000 1.000000 0.244561
0.235967 1.000000 0.244561
0.456308 1.000000 0.244561
0.663161 1.000000 0.244561
0.862054 1.000000 0.244561
1.000000 1.000000 0.244561
0.000000 0.000000 0.465266
0.235967 0.000000 0.465266
0.456308 0.000000 0.465266
0.663161 0.000000 0.465266
0.862054 0.000000 0.465266
1.000000 0.000000 0.465266
0.000000 0.244561 0.465266
0.235967 0.244561 0.465266
0.456308 0.244561 0.465266
0.663161 0.244561 0.465266
0.862054 0.244561 0.465266
1.000000 0.244561 0.465266
0.000000 0.465266 0.465266
0.235967 0.465266 0.465266
0.456308 0.465266 0.465266
0.663161 0.465266 0.465266
0.862054 0.465266 0.465266
1.000000 0.465266 0.465266
0.000000 0.669963 0.465266
0.235967 0.669963 0.465266
0.456308 0.669963 0.465266
0.663161 0.669963 0.465266
0.862054 0.669963 0.465266
1.000000 0.669963 0.465266
0.000000 0.865217 0.465266
0.235967 0.865217 0.465266
0.456308 0.865217 0.465266
0.663161 0.865217 0.465266
0.862054 0.865217 0.465266
1.000000 0.865217 0.465266
0.000000 1.000000 0.465266
0.235967 1.000000 0.465266
0.456308 1.000000 0.465266
0.663161 1.000000 0.465266
0.862054 1.000000 0.465266
1.000000 1.000000 0.465266
0.000000 0.000000 0.669963
0.235967 0.000000 0.669963
0.456308 0.000000 0.669963
0.663161 0.000000 0.669963
0.862054 0.000000 0.669963
1.000000 0.000000 0.669963
0.000000 0.244561 0.669963
0.235967 0.244561 0.669963
0.456308 0.244561 0.669963
0.663161 0.244561 0.669963
0.862054 0.244561 0.669963
1.000000 0.244561 0.669963
0.000000 0.465266 0.669963
0.235967 0.465266 0.669963
0.456308 0.465266 0.669963
0.663161 0.465266 0.669963
0.862054 0.465266 0.669963
1.000000 0.465266 0.669963
0.000000 0.669963 0.669963
0.235967 0.669963 0.669963
0.456308 0.669963 0.669963
0.663161 0.669963 0.669963
0.862054 0.669963 0.669963
1.000000 0.669963 0.669963
0.000000 0.865217 0.669963
0.235967 0.865217 0.669963
0.456308 0.865217 0.669963
0.663161 0.865217 0.669963
0.862054 0.865217 0.669963
1.000000 0.865217 0.669963
0.000000 1.000000 0.669963
0.235967 1.000000 0.669963
0.456308 1.000000 0.669963
0.663161 1.000000 0.669963
0.862054 1.000000 0.669963
1.000000 1.000000 0.669963
0.000000 0.000000 0.865217
0.235967 0.000000 0.865217
0.456308 0.000000 0.865217
0.663161 0.000000 0.865217
0.862054 0.000000 0.865217
1.000000 0.000000 0.865217
0.000000 0.244561 0.865217
0.235967 0.244561 0.865217
0.456308 0.244561 0.865217
0.663161 0.244561 0.865217
0.862054 0.244561 0.865217
1.000000 0.244561 0.865217
0.000000 0.465266 0.865217
0.235967 0.465266 0.865217
0.456308 0.465266 0.865217
0.663161 0.465266 0.865217
0.862054 0.465266 0.865217
1.000000 0.465266 0.865217
0.000000 0.669963 0.865217
0.235967 0.669963 0.865217
0.456308 0.669963 0.865217
0.663161 0.669963 0.865217
0.862054 0.669963 0.865217
1.000000 0.669963 0.865217
0.000000 0.865217 0.865217
0.235967 0.865217 0.865217
0.456308 0.865217 0.865217
0.663161 0.865217 0.865217
0.862054 0.865217 0.865217
1.000000 0.865217 0.865217
0.000000 1.000000 0.865217
0.235967 1.000000 0.865217
0.456308 1.000000 0.865217
0.663161 1.000000 0.865217
0.862054 1.000000 0.865217
1.000000 1.000000 0.865217
0.000000 0.000000 1.000000
0.235967 0.000000 1.000000
0.456308 0.000000 1.000000
0.663161 0.000000 1.000000
0.862054 0.000000 1.000000
1.000000 0.000000 1.000000
0.000000 0.244561 1.000000
0.235967 0.244561 1.000000
0.456308 0.244561 1.000000
0.663161 0.244561 1.000000
0.862054 0.244561 1.000000
1.000000 0.244561 1.000000
0.000000 0.465266 1.000000
0.235967 0.465266 1.000000
0.456308 0.465266 1.000000
0.663161 0.465266 1.000000
0.862054 0.465266 1.000000
1.000000 0.465266 1.000000
0.000000 0.669963 1.000000
0.235967 0.669963 1.000000
0.456308 0.669963 1.000000
0.663161 0.669963 1.000000
0.862054 0.669963 1.000000
1.000000 0.669963 1.000000
0.000000 0.865217 1.000000
0.235967 0.865217 1.000000
0.456308 0.865217 1.000000
0.663161 0.865217 1.000000
0.862054 0.865217 1.000000
1.000000 0.865217 1.000000
0.000000 1.000000 1.000000
0.235967 1.000000 1.000000
0.456308 1.000000 1.000000
0.663161 1.000000 1.000000
0.862054 1.000000 1.000000
1.000000 1.000000 1.000000
