cube2.cube
LUT_3D_SIZE 16
0.000000 0.000000 0.000000
0.075625 0.000000 0.000000
0.157085 0.000000 0.000000
0.235967 0.000000 0.000000
0.311520 0.000000 0.000000
0.384787 0.000000 0.000000
0.456308 0.000000 0.000000
0.526405 0.000000 0.000000
0.595260 0.000000 0.000000
0.663161 0.000000 0.000000
0.730186 0.000000 0.000000
0.796476 0.000000 0.000000
0.862054 0.000000 0.000000
0.926430 0.000000 0.000000
0.976309 0.000000 0.000000
1.000000 0.000000 0.000000
0.000000 0.080623 0.000000
0.075625 0.080623 0.000000
0.157085 0.080623 0.000000
0.235967 0.080623 0.000000
0.311520 0.080623 0.000000
0.384787 0.080623 0.000000
0.456308 0.080623 0.000000
0.526405 0.080623 0.000000
0.595260 0.080623 0.000000
0.663161 0.080623 0.000000
0.730186 0.080623 0.000000
0.796476 0.080623 0.000000
0.862054 0.080623 0.000000
0.926430 0.080623 0.000000
0.976309 0.080623 0.000000
1.000000 0.080623 0.000000
0.000000 0.164460 0.000000
0.075625 0.164460 0.000000
0.157085 0.164460 0.000000
0.235967 0.164460 0.000000
0.311520 0.164460 0.000000
0.384787 0.164460 0.000000
0.456308 0.164460 0.000000
0.526405 0.164460 0.000000
0.595260 0.164460 0.000000
0.663161 0.164460 0.000000
0.730186 0.164460 0.000000
0.796476 0.164460 0.000000
0.862054 0.164460 0.000000
0.926430 0.164460 0.000000
0.976309 0.164460 0.000000
1.000000 0.164460 0.000000
0.000000 0.244561 0.000000
0.075625 0.244561 0.000000
0.157085 0.244561 0.000000
0.235967 0.244561 0.000000
0.311520 0.244561 0.000000
0.384787 0.244561 0.000000
0.456308 0.244561 0.000000
0.526405 0.244561 0.000000
0.595260 0.244561 0.000000
0.663161 0.244561 0.000000
0.730186 0.244561 0.000000
0.796476 0.244561 0.000000
0.862054 0.244561 0.000000
0.926430 0.244561 0.000000
0.976309 0.244561 0.000000
1.000000 0.244561 0.000000
0.000000 0.320645 0.000000
0.075625 0.320645 0.000000
0.157085 0.320645 0.000000
0.235967 0.320645 0.000000
0.311520 0.320645 0.000000
0.384787 0.320645 0.000000
0.456308 0.320645 0.000000
0.526405 0.320645 0.000000
0.595260 0.320645 0.000000
0.663161 0.320645 0.000000
0.730186 0.320645 0.000000
0.796476 0.320645 0.000000
0.862054 0.320645 0.000000
0.926430 0.320645 0.000000
0.976309 0.320645 0.000000
1.000000 0.320645 0.000000
0.000000 0.393984 0.000000
0.075625 0.393984 0.000000
0.157085 0.393984 0.000000
0.235967 0.393984 0.000000
0.311520 0.393984 0.000000
0.384787 0.393984 0.000000
0.456308 0.393984 0.000000
0.526405 0.393984 0.000000
0.595260 0.393984 0.000000
0.663161 0.393984 0.000000
0.730186 0.393984 0.000000
0.796476 0.393984 0.000000
0.862054 0.393984 0.000000
0.926430 0.393984 0.000000
0.976309 0.393984 0.000000
1.000000 0.393984 0.000000
0.000000 0.465266 0.000000
0.075625 0.465266 0.000000
0.157085 0.465266 0.000000
0.235967 0.465266 0.000000
0.311520 0.465266 0.000000
0.384787 0.465266 0.000000
0.456308 0.465266 0.000000
0.526405 0.465266 0.000000
0.595260 0.465266 0.000000
0.663161 0.465266 0.000000
0.730186 0.465266 0.000000
0.796476 0.465266 0.000000
0.862054 0.465266 0.000000
0.926430 0.465266 0.000000
0.976309 0.465266 0.000000
1.000000 0.465266 0.000000
0.000000 0.534843 0.000000
0.075625 0.534843 0.000000
0.157085 0.534843 0.000000
0.235967 0.534843 0.000000
0.311520 0.534843 0.000000
0.384787 0.534843 0.000000
0.456308 0.534843 0.000000
0.526405 0.534843 0.000000
0.595260 0.534843 0.000000
0.663161 0.534843 0.000000
0.730186 0.534843 0.000000
0.796476 0.534843 0.000000
0.862054 0.534843 0.000000
0.926430 0.534843 0.000000
0.976309 0.534843 0.000000
1.000000 0.534843 0.000000
0.000000 0.602979 0.000000
0.075625 0.602979 0.000000
0.157085 0.602979 0.000000
0.235967 0.602979 0.000000
0.311520 0.602979 0.000000
0.384787 0.602979 0.000000
0.456308 0.602979 0.000000
0.526405 0.602979 0.000000
0.595260 0.602979 0.000000
0.663161 0.602979 0.000000
0.730186 0.602979 0.000000
0.796476 0.602979 0.000000
0.862054 0.602979 0.000000
0.926430 0.602979 0.000000
0.976309 0.602979 0.000000
1.000000 0.602979 0.000000
0.000000 0.669963 0.000000
0.075625 0.669963 0.000000
0.157085 0.669963 0.000000
0.235967 0.669963 0.000000
0.311520 0.669963 0.000000
0.384787 0.669963 0.000000
0.456308 0.669963 0.000000
0.526405 0.669963 0.000000
0.595260 0.669963 0.000000
0.663161 0.669963 0.000000
0.730186 0.669963 0.000000
0.796476 0.669963 0.000000
0.862054 0.669963 0.000000
0.926430 0.669963 0.000000
0.976309 0.669963 0.000000
1.000000 0.669963 0.000000
0.000000 0.735961 0.000000
0.075625 0.735961 0.000000
0.157085 0.735961 0.000000
0.235967 0.735961 0.000000
0.311520 0.735961 0.000000
0.384787 0.735961 0.000000
0.456308 0.735961 0.000000
0.526405 0.735961 0.000000
0.595260 0.735961 0.000000
0.663161 0.735961 0.000000
0.730186 0.735961 0.000000
0.796476 0.735961 0.000000
0.862054 0.735961 0.000000
0.926430 0.735961 0.000000
0.976309 0.735961 0.000000
1.000000 0.735961 0.000000
0.000000 0.800987 0.000000
0.075625 0.800987 0.000000
0.157085 0.800987 0.000000
0.235967 0.800987 0.000000
0.311520 0.800987 0.000000
0.384787 0.800987 0.000000
0.456308 0.800987 0.000000
0.526405 0.800987 0.000000
0.595260 0.800987 0.000000
0.663161 0.800987 0.000000
0.730186 0.800987 0.000000
0.796476 0.800987 0.000000
0.862054 0.800987 0.000000
0.926430 0.800987 0.000000
0.976309 0.800987 0.000000
1.000000 0.800987 0.000000
0.000000 0.865217 0.000000
0.075625 0.865217 0.000000
0.157085 0.865217 0.000000
0.235967 0.865217 0.000000
0.311520 0.865217 0.000000
0.384787 0.865217 0.000000
0.456308 0.865217 0.000000
0.526405 0.865217 0.000000
0.595260 0.865217 0.000000
0.663161 0.865217 0.000000
0.730186 0.865217 0.000000
0.796476 0.865217 0.000000
0.862054 0.865217 0.000000
0.926430 0.865217 0.000000
0.976309 0.865217 0.000000
1.000000 0.865217 0.000000
0.000000 0.928157 0.000000
0.075625 0.928157 0.000000
0.157085 0.928157 0.000000
0.235967 0.928157 0.000000
0.311520 0.928157 0.000000
0.384787 0.928157 0.000000
0.456308 0.928157 0.000000
0.526405 0.928157 0.000000
0.595260 0.928157 0.000000
0.663161 0.928157 0.000000
0.730186 0.928157 0.000000
0.796476 0.928157 0.000000
0.862054 0.928157 0.000000
0.926430 0.928157 0.000000
0.976309 0.928157 0.000000
1.000000 0.928157 0.000000
0.000000 0.976858 0.000000
0.075625 0.976858 0.000000
0.157085 0.976858 0.000000
0.235967 0.976858 0.000000
0.311520 0.976858 0.000000
0.384787 0.976858 0.000000
0.456308 0.976858 0.000000
0.526405 0.976858 0.000000
0.595260 0.976858 0.000000
0.663161 0.976858 0.000000
0.730186 0.976858 0.000000
0.796476 0.976858 0.000000
0.862054 0.976858 0.000000
0.926430 0.976858 0.000000
0.976309 0.976858 0.000000
1.000000 0.976858 0.000000
0.000000 1.000000 0.000000
0.075625 1.000000 0.000000
0.157085 1.000000 0.000000
0.235967 1.000000 0.000000
0.311520 1.000000 0.000000
0.384787 1.000000 0.000000
0.456308 1.000000 0.000000
0.526405 1.000000 0.000000
0.595260 1.000000 0.000000
0.663161 1.000000 0.000000
0.730186 1.000000 0.000000
0.796476 1.000000 0.000000
0.862054 1.000000 0.000000
0.926430 1.000000 0.000000
0.976309 1.000000 0.000000
1.000000 1.000000 0.000000
0.000000 0.000000 0.080623
0.075625 0.000000 0.080623
0.157085 0.000000 0.080623
0.235967 0.000000 0.080623
0.311520 0.000000 0.080623
0.384787 0.000000 0.080623
0.456308 0.000000 0.080623
0.526405 0.000000 0.080623
0.595260 0.000000 0.080623
0.663161 0.000000 0.080623
0.730186 0.000000 0.080623
0.796476 0.000000 0.080623
0.862054 0.000000 0.080623
0.926430 0.000000 0.080623
0.976309 0.000000 0.080623
1.000000 0.000000 0.080623
0.000000 0.080623 0.080623
0.075625 0.080623 0.080623
0.157085 0.080623 0.080623
0.235967 0.080623 0.080623
0.311520 0.080623 0.080623
0.384787 0.080623 0.080623
0.456308 0.080623 0.080623
0.526405 0.080623 0.080623
0.595260 0.080623 0.080623
0.663161 0.080623 0.080623
0.730186 0.080623 0.080623
0.796476 0.080623 0.080623
0.862054 0.080623 0.080623
0.926430 0.080623 0.080623
0.976309 0.080623 0.080623
1.000000 0.080623 0.080623
0.000000 0.164460 0.080623
0.075625 0.164460 0.080623
0.157085 0.164460 0.080623
0.235967 0.164460 0.080623
0.311520 0.164460 0.080623
0.384787 0.164460 0.080623
0.456308 0.164460 0.080623
0.526405 0.164460 0.080623
0.595260 0.164460 0.080623
0.663161 0.164460 0.080623
0.730186 0.164460 0.080623
0.796476 0.164460 0.080623
0.862054 0.164460 0.080623
0.926430 0.164460 0.080623
0.976309 0.164460 0.080623
1.000000 0.164460 0.080623
0.000000 0.244561 0.080623
0.075625 0.244561 0.080623
0.157085 0.244561 0.080623
0.235967 0.244561 0.080623
0.311520 0.244561 0.080623
0.384787 0.244561 0.080623
0.456308 0.244561 0.080623
0.526405 0.244561 0.080623
0.595260 0.244561 0.080623
0.663161 0.244561 0.080623
0.730186 0.244561 0.080623
0.796476 0.244561 0.080623
0.862054 0.244561 0.080623
0.926430 0.244561 0.080623
0.976309 0.244561 0.080623
1.000000 0.244561 0.080623
0.000000 0.320645 0.080623
0.075625 0.320645 0.080623
0.157085 0.320645 0.080623
0.235967 0.320645 0.080623
0.311520 0.320645 0.080623
0.384787 0.320645 0.080623
0.456308 0.320645 0.080623
0.526405 0.320645 0.080623
0.595260 0.320645 0.080623
0.663161 0.320645 0.080623
0.730186 0.320645 0.080623
0.796476 0.320645 0.080623
0.862054 0.320645 0.080623
0.926430 0.320645 0.080623
0.976309 0.320645 0.080623
1.000000 0.320645 0.080623
0.000000 0.393984 0.080623
0.075625 0.393984 0.080623
0.157085 0.393984 0.080623
0.235967 0.393984 0.080623
0.311520 0.393984 0.080623
0.384787 0.393984 0.080623
0.456308 0.393984 0.080623
0.526405 0.393984 0.080623
0.595260 0.393984 0.080623
0.663161 0.393984 0.080623
0.730186 0.393984 0.080623
0.796476 0.393984 0.080623
0.862054 0.393984 0.080623
0.926430 0.393984 0.080623
0.976309 0.393984 0.080623
1.000000 0.393984 0.080623
0.000000 0.465266 0.080623
0.075625 0.465266 0.080623
0.157085 0.465266 0.080623
0.235967 0.465266 0.080623
0.311520 0.465266 0.080623
0.384787 0.465266 0.080623
0.456308 0.465266 0.080623
0.526405 0.465266 0.080623
0.595260 0.465266 0.080623
0.663161 0.465266 0.080623
0.730186 0.465266 0.080623
0.796476 0.465266 0.080623
0.862054 0.465266 0.080623
0.926430 0.465266 0.080623
0.976309 0.465266 0.080623
1.000000 0.465266 0.080623
0.000000 0.534843 0.080623
0.075625 0.534843 0.080623
0.157085 0.534843 0.080623
0.235967 0.534843 0.080623
0.311520 0.534843 0.080623
0.384787 0.534843 0.080623
0.456308 0.534843 0.080623
0.526405 0.534843 0.080623
0.595260 0.534843 0.080623
0.663161 0.534843 0.080623
0.730186 0.534843 0.080623
0.796476 0.534843 0.080623
0.862054 0.534843 0.080623
0.926430 0.534843 0.080623
0.976309 0.534843 0.080623
1.000000 0.534843 0.080623
0.000000 0.602979 0.080623
0.075625 0.602979 0.080623
0.157085 0.602979 0.080623
0.235967 0.602979 0.080623
0.311520 0.602979 0.080623
0.384787 0.602979 0.080623
0.456308 0.602979 0.080623
0.526405 0.602979 0.080623
0.595260 0.602979 0.080623
0.663161 0.602979 0.080623
0.730186 0.602979 0.080623
0.796476 0.602979 0.080623
0.862054 0.602979 0.080623
0.926430 0.602979 0.080623
0.976309 0.602979 0.080623
1.000000 0.602979 0.080623
0.000000 0.669963 0.080623
0.075625 0.669963 0.080623
0.157085 0.669963 0.080623
0.235967 0.669963 0.080623
0.311520 0.669963 0.080623
0.384787 0.669963 0.080623
0.456308 0.669963 0.080623
0.526405 0.669963 0.080623
0.595260 0.669963 0.080623
0.663161 0.669963 0.080623
0.730186 0.669963 0.080623
0.796476 0.669963 0.080623
0.862054 0.669963 0.080623
0.926430 0.669963 0.080623
0.976309 0.669963 0.080623
1.000000 0.669963 0.080623
0.000000 0.735961 0.080623
0.075625 0.735961 0.080623
0.157085 0.735961 0.080623
0.235967 0.735961 0.080623
0.311520 0.735961 0.080623
0.384787 0.735961 0.080623
0.456308 0.735961 0.080623
0.526405 0.735961 0.080623
0.595260 0.735961 0.080623
0.663161 0.735961 0.080623
0.730186 0.735961 0.080623
0.796476 0.735961 0.080623
0.862054 0.735961 0.080623
0.926430 0.735961 0.080623
0.976309 0.735961 0.080623
1.000000 0.735961 0.080623
0.000000 0.800987 0.080623
0.075625 0.800987 0.080623
0.157085 0.800987 0.080623
0.235967 0.800987 0.080623
0.311520 0.800987 0.080623
0.384787 0.800987 0.080623
0.456308 0.800987 0.080623
0.526405 0.800987 0.080623
0.595260 0.800987 0.080623
0.663161 0.800987 0.080623
0.730186 0.800987 0.080623
0.796476 0.800987 0.080623
0.862054 0.800987 0.080623
0.926430 0.800987 0.080623
0.976309 0.800987 0.080623
1.000000 0.800987 0.080623
0.000000 0.865217 0.080623
0.075625 0.865217 0.080623
0.157085 0.865217 0.080623
0.235967 0.865217 0.080623
0.311520 0.865217 0.080623
0.384787 0.865217 0.080623
0.456308 0.865217 0.080623
0.526405 0.865217 0.080623
0.595260 0.865217 0.080623
0.663161 0.865217 0.080623
0.730186 0.865217 0.080623
0.796476 0.865217 0.080623
0.862054 0.865217 0.080623
0.926430 0.865217 0.080623
0.976309 0.865217 0.080623
1.000000 0.865217 0.080623
0.000000 0.928157 0.080623
0.075625 0.928157 0.080623
0.157085 0.928157 0.080623
0.235967 0.928157 0.080623
0.311520 0.928157 0.080623
0.384787 0.928157 0.080623
0.456308 0.928157 0.080623
0.526405 0.928157 0.080623
0.595260 0.928157 0.080623
0.663161 0.928157 0.080623
0.730186 0.928157 0.080623
0.796476 0.928157 0.080623
0.862054 0.928157 0.080623
0.926430 0.928157 0.080623
0.976309 0.928157 0.080623
1.000000 0.928157 0.080623
0.000000 0.976858 0.080623
0.075625 0.976858 0.080623
0.157085 0.976858 0.080623
0.235967 0.976858 0.080623
0.311520 0.976858 0.080623
0.384787 0.976858 0.080623
0.456308 0.976858 0.080623
0.526405 0.976858 0.080623
0.595260 0.976858 0.080623
0.663161 0.976858 0.080623
0.730186 0.976858 0.080623
0.796476 0.976858 0.080623
0.862054 0.976858 0.080623
0.926430 0.976858 0.080623
0.976309 0.976858 0.080623
1.000000 0.976858 0.080623
0.000000 1.000000 0.080623
0.075625 1.000000 0.080623
0.157085 1.000000 0.080623
0.235967 1.000000 0.080623
0.311520 1.000000 0.080623
0.384787 1.000000 0.080623
0.456308 1.000000 0.080623
0.526405 1.000000 0.080623
0.595260 1.000000 0.080623
0.663161 1.000000 0.080623
0.730186 1.000000 0.080623
0.796476 1.000000 0.080623
0.862054 1.000000 0.080623
0.926430 1.000000 0.080623
0.976309 1.000000 0.080623
1.000000 1.000000 0.080623
0.000000 0.000000 0.164460
0.075625 0.000000 0.164460
0.157085 0.000000 0.164460
0.235967 0.000000 0.164460
0.311520 0.000000 0.164460
0.384787 0.000000 0.164460
0.456308 0.000000 0.164460
0.526405 0.000000 0.164460
0.595260 0.000000 0.164460
0.663161 0.000000 0.164460
0.730186 0.000000 0.164460
0.796476 0.000000 0.164460
0.862054 0.000000 0.164460
0.926430 0.000000 0.164460
0.976309 0.000000 0.164460
1.000000 0.000000 0.164460
0.000000 0.080623 0.164460
0.075625 0.080623 0.164460
0.157085 0.080623 0.164460
0.235967 0.080623 0.164460
0.311520 0.080623 0.164460
0.384787 0.080623 0.164460
0.456308 0.080623 0.164460
0.526405 0.080623 0.164460
0.595260 0.080623 0.164460
0.663161 0.080623 0.164460
0.730186 0.080623 0.164460
0.796476 0.080623 0.164460
0.862054 0.080623 0.164460
0.926430 0.080623 0.164460
0.976309 0.080623 0.164460
1.000000 0.080623 0.164460
0.000000 0.164460 0.164460
0.075625 0.164460 0.164460
0.157085 0.164460 0.164460
0.235967 0.164460 0.164460
0.311520 0.164460 0.164460
0.384787 0.164460 0.164460
0.456308 0.164460 0.164460
0.526405 0.164460 0.164460
0.595260 0.164460 0.164460
0.663161 0.164460 0.164460
0.730186 0.164460 0.164460
0.796476 0.164460 0.164460
0.862054 0.164460 0.164460
0.926430 0.164460 0.164460
0.976309 0.164460 0.164460
1.000000 0.164460 0.164460
0.000000 0.244561 0.164460
0.075625 0.244561 0.164460
0.157085 0.244561 0.164460
0.235967 0.244561 0.164460
0.311520 0.244561 0.164460
0.384787 0.244561 0.164460
0.456308 0.244561 0.164460
0.526405 0.244561 0.164460
0.595260 0.244561 0.164460
0.663161 0.244561 0.164460
0.730186 0.244561 0.164460
0.796476 0.244561 0.164460
0.862054 0.244561 0.164460
0.926430 0.244561 0.164460
0.976309 0.244561 0.164460
1.000000 0.244561 0.164460
0.000000 0.320645 0.164460
0.075625 0.320645 0.164460
0.157085 0.320645 0.164460
0.235967 0.320645 0.164460
0.311520 0.320645 0.164460
0.384787 0.320645 0.164460
0.456308 0.320645 0.164460
0.526405 0.320645 0.164460
0.595260 0.320645 0.164460
0.663161 0.320645 0.164460
0.730186 0.320645 0.164460
0.796476 0.320645 0.164460
0.862054 0.320645 0.164460
0.926430 0.320645 0.164460
0.976309 0.320645 0.164460
1.000000 0.320645 0.164460
0.000000 0.393984 0.164460
0.075625 0.393984 0.164460
0.157085 0.393984 0.164460
0.235967 0.393984 0.164460
0.311520 0.393984 0.164460
0.384787 0.393984 0.164460
0.456308 0.393984 0.164460
0.526405 0.393984 0.164460
0.595260 0.393984 0.164460
0.663161 0.393984 0.164460
0.730186 0.393984 0.164460
0.796476 0.393984 0.164460
0.862054 0.393984 0.164460
0.926430 0.393984 0.164460
0.976309 0.393984 0.164460
1.000000 0.393984 0.164460
0.000000 0.465266 0.164460
0.075625 0.465266 0.164460
0.157085 0.465266 0.164460
0.235967 0.465266 0.164460
0.311520 0.465266 0.164460
0.384787 0.465266 0.164460
0.456308 0.465266 0.164460
0.526405 0.465266 0.164460
0.595260 0.465266 0.164460
0.663161 0.465266 0.164460
0.730186 0.465266 0.164460
0.796476 0.465266 0.164460
0.862054 0.465266 0.164460
0.926430 0.465266 0.164460
0.976309 0.465266 0.164460
1.000000 0.465266 0.164460
0.000000 0.534843 0.164460
0.075625 0.534843 0.164460
0.157085 0.534843 0.164460
0.235967 0.534843 0.164460
0.311520 0.534843 0.164460
0.384787 0.534843 0.164460
0.456308 0.534843 0.164460
0.526405 0.534843 0.164460
0.595260 0.534843 0.164460
0.663161 0.534843 0.164460
0.730186 0.534843 0.164460
0.796476 0.534843 0.164460
0.862054 0.534843 0.164460
0.926430 0.534843 0.164460
0.976309 0.534843 0.164460
1.000000 0.534843 0.164460
0.000000 0.602979 0.164460
0.075625 0.602979 0.164460
0.157085 0.602979 0.164460
0.235967 0.602979 0.164460
0.311520 0.602979 0.164460
0.384787 0.602979 0.164460
0.456308 0.602979 0.164460
0.526405 0.602979 0.164460
0.595260 0.602979 0.164460
0.663161 0.602979 0.164460
0.730186 0.602979 0.164460
0.796476 0.602979 0.164460
0.862054 0.602979 0.164460
0.926430 0.602979 0.164460
0.976309 0.602979 0.164460
1.000000 0.602979 0.164460
0.000000 0.669963 0.164460
0.075625 0.669963 0.164460
0.157085 0.669963 0.164460
0.235967 0.669963 0.164460
0.311520 0.669963 0.164460
0.384787 0.669963 0.164460
0.456308 0.669963 0.164460
0.526405 0.669963 0.164460
0.595260 0.669963 0.164460
0.663161 0.669963 0.164460
0.730186 0.669963 0.164460
0.796476 0.669963 0.164460
0.862054 0.669963 0.164460
0.926430 0.669963 0.164460
0.976309 0.669963 0.164460
1.000000 0.669963 0.164460
0.000000 0.735961 0.164460
0.075625 0.735961 0.164460
0.157085 0.735961 0.164460
0.235967 0.735961 0.164460
0.311520 0.735961 0.164460
0.384787 0.735961 0.164460
0.456308 0.735961 0.164460
0.526405 0.735961 0.164460
0.595260 0.735961 0.164460
0.663161 0.735961 0.164460
0.730186 0.735961 0.164460
0.796476 0.735961 0.164460
0.862054 0.735961 0.164460
0.926430 0.735961 0.164460
0.976309 0.735961 0.164460
1.000000 0.735961 0.164460
0.000000 0.800987 0.164460
0.075625 0.800987 0.164460
0.157085 0.800987 0.164460
0.235967 0.800987 0.164460
0.311520 0.800987 0.164460
0.384787 0.800987 0.164460
0.456308 0.800987 0.164460
0.526405 0.800987 0.164460
0.595260 0.800987 0.164460
0.663161 0.800987 0.164460
0.730186 0.800987 0.164460
0.796476 0.800987 0.164460
0.862054 0.800987 0.164460
0.926430 0.800987 0.164460
0.976309 0.800987 0.164460
1.000000 0.800987 0.164460
0.000000 0.865217 0.164460
0.075625 0.865217 0.164460
0.157085 0.865217 0.164460
0.235967 0.865217 0.164460
0.311520 0.865217 0.164460
0.384787 0.865217 0.164460
0.456308 0.865217 0.164460
0.526405 0.865217 0.164460
0.595260 0.865217 0.164460
0.663161 0.865217 0.164460
0.730186 0.865217 0.164460
0.796476 0.865217 0.164460
0.862054 0.865217 0.164460
0.926430 0.865217 0.164460
0.976309 0.865217 0.164460
1.000000 0.865217 0.164460
0.000000 0.928157 0.164460
0.075625 0.928157 0.164460
0.157085 0.928157 0.164460
0.235967 0.928157 0.164460
0.311520 0.928157 0.164460
0.384787 0.928157 0.164460
0.456308 0.928157 0.164460
0.526405 0.928157 0.164460
0.595260 0.928157 0.164460
0.663161 0.928157 0.164460
0.730186 0.928157 0.164460
0.796476 0.928157 0.164460
0.862054 0.928157 0.164460
0.926430 0.928157 0.164460
0.976309 0.928157 0.164460
1.000000 0.928157 0.164460
0.000000 0.976858 0.164460
0.075625 0.976858 0.164460
0.157085 0.976858 0.164460
0.235967 0.976858 0.164460
0.311520 0.976858 0.164460
0.384787 0.976858 0.164460
0.456308 0.976858 0.164460
0.526405 0.976858 0.164460
0.595260 0.976858 0.164460
0.663161 0.976858 0.164460
0.730186 0.976858 0.164460
0.796476 0.976858 0.164460
0.862054 0.976858 0.164460
0.926430 0.976858 0.164460
0.976309 0.976858 0.164460
1.000000 0.976858 0.164460
0.000000 1.000000 0.164460
0.075625 1.000000 0.164460
0.157085 1.000000 0.164460
0.235967 1.000000 0.164460
0.311520 1.000000 0.164460
0.384787 1.000000 0.164460
0.456308 1.000000 0.164460
0.526405 1.000000 0.164460
0.595260 1.000000 0.164460
0.663161 1.000000 0.164460
0.730186 1.000000 0.164460
0.796476 1.000000 0.164460
0.862054 1.000000 0.164460
0.926430 1.000000 0.164460
0.976309 1.000000 0.164460
1.000000 1.000000 0.164460
0.000000 0.000000 0.244561
0.075625 0.000000 0.244561
0.157085 0.000000 0.244561
0.235967 0.000000 0.244561
0.311520 0.000000 0.244561
0.384787 0.000000 0.244561
0.456308 0.000000 0.244561
0.526405 0.000000 0.244561
0.595260 0.000000 0.244561
0.663161 0.000000 0.244561
0.730186 0.000000 0.244561
0.796476 0.000000 0.244561
0.862054 0.000000 0.244561
0.926430 0.000000 0.244561
0.976309 0.000000 0.244561
1.000000 0.000000 0.244561
0.000000 0.080623 0.244561
0.075625 0.080623 0.244561
0.157085 0.080623 0.244561
0.235967 0.080623 0.244561
0.311520 0.080623 0.244561
0.384787 0.080623 0.244561
0.456308 0.080623 0.244561
0.526405 0.080623 0.244561
0.595260 0.080623 0.244561
0.663161 0.080623 0.244561
0.730186 0.080623 0.244561
0.796476 0.080623 0.244561
0.862054 0.080623 0.244561
0.926430 0.080623 0.244561
0.976309 0.080623 0.244561
1.000000 0.080623 0.244561
0.000000 0.164460 0.244561
0.075625 0.164460 0.244561
0.157085 0.164460 0.244561
0.235967 0.164460 0.244561
0.311520 0.164460 0.244561
0.384787 0.164460 0.244561
0.456308 0.164460 0.244561
0.526405 0.164460 0.244561
0.595260 0.164460 0.244561
0.663161 0.164460 0.244561
0.730186 0.164460 0.244561
0.796476 0.164460 0.244561
0.862054 0.164460 0.244561
0.926430 0.164460 0.244561
0.976309 0.164460 0.244561
1.000000 0.164460 0.244561
0.000000 0.244561 0.244561
0.075625 0.244561 0.244561
0.157085 0.244561 0.244561
0.235967 0.244561 0.244561
0.311520 0.244561 0.244561
0.384787 0.244561 0.244561
0.456308 0.244561 0.244561
0.526405 0.244561 0.244561
0.595260 0.244561 0.244561
0.663161 0.244561 0.244561
0.730186 0.244561 0.244561
0.796476 0.244561 0.244561
0.862054 0.244561 0.244561
0.926430 0.244561 0.244561
0.976309 0.244561 0.244561
1.000000 0.244561 0.244561
0.000000 0.320645 0.244561
0.075625 0.320645 0.244561
0.157085 0.320645 0.244561
0.235967 0.320645 0.244561
0.311520 0.320645 0.244561
0.384787 0.320645 0.244561
0.456308 0.320645 0.244561
0.526405 0.320645 0.244561
0.595260 0.320645 0.244561
0.663161 0.320645 0.244561
0.730186 0.320645 0.244561
0.796476 0.320645 0.244561
0.862054 0.320645 0.244561
0.926430 0.320645 0.244561
0.976309 0.320645 0.244561
1.000000 0.320645 0.244561
0.000000 0.393984 0.244561
0.075625 0.393984 0.244561
0.157085 0.393984 0.244561
0.235967 0.393984 0.244561
0.311520 0.393984 0.244561
0.384787 0.393984 0.244561
0.456308 0.393984 0.244561
0.526405 0.393984 0.244561
0.595260 0.393984 0.244561
0.663161 0.393984 0.244561
0.730186 0.393984 0.244561
0.796476 0.393984 0.244561
0.862054 0.393984 0.244561
0.926430 0.393984 0.244561
0.976309 0.393984 0.244561
1.000000 0.393984 0.244561
0.000000 0.465266 0.244561
0.075625 0.465266 0.244561
0.157085 0.465266 0.244561
0.235967 0.465266 0.244561
0.311520 0.465266 0.244561
0.384787 0.465266 0.244561
0.456308 0.465266 0.244561
0.526405 0.465266 0.244561
0.595260 0.465266 0.244561
0.663161 0.465266 0.244561
0.730186 0.465266 0.244561
0.796476 0.465266 0.244561
0.862054 0.465266 0.244561
0.926430 0.465266 0.244561
0.976309 0.465266 0.244561
1.000000 0.465266 0.244561
0.000000 0.534843 0.244561
0.075625 0.534843 0.244561
0.157085 0.534843 0.244561
0.235967 0.534843 0.244561
0.311520 0.534843 0.244561
0.384787 0.534843 0.244561
0.456308 0.534843 0.244561
0.526405 0.534843 0.244561
