newtry.cube
LUT_3D_SIZE 6
0.000000 0.000000 0.000000
0.303887 0.000000 0.000000
0.523543 0.000000 0.000000
0.712648 0.000000 0.000000
0.884755 0.000000 0.000000
1.000000 0.000000 0.000000
0.000000 0.227702 0.000000
0.303887 0.227702 0.000000
0.523543 0.227702 0.000000
0.712648 0.227702 0.000000
0.884755 0.227702 0.000000
1.000000 0.227702 0.000000
0.000000 0.447555 0.000000
0.303887 0.447555 0.000000
0.523543 0.447555 0.000000
0.712648 0.447555 0.000000
0.884755 0.447555 0.000000
1.000000 0.447555 0.000000
0.000000 0.656477 0.000000
0.303887 0.656477 0.000000
0.523543 0.656477 0.000000
0.712648 0.656477 0.000000
0.884755 0.656477 0.000000
1.000000 0.656477 0.000000
0.000000 0.858881 0.000000
0.303887 0.858881 0.000000
0.523543 0.858881 0.000000
0.712648 0.858881 0.000000
0.884755 0.858881 0.000000
1.000000 0.858881 0.000000
0.000000 1.000000 0.000000
0.303887 1.000000 0.000000
0.523543 1.000000 0.000000
0.712648 1.000000 0.000000
0.884755 1.000000 0.000000
1.000000 1.000000 0.000000
0.000000 0.000000 0.235629
0.303887 0.000000 0.235629
0.523543 0.000000 0.235629
0.712648 0.000000 0.235629
0.884755 0.000000 0.235629
1.000000 0.000000 0.235629
0.000000 0.227702 0.235629
0.303887 0.227702 0.235629
0.523543 0.227702 0.235629
0.712648 0.227702 0.235629
0.884755 0.227702 0.235629
1.000000 0.227702 0.235629
0.000000 0.447555 0.235629
0.303887 0.447555 0.235629
0.523543 0.447555 0.235629
0.712648 0.447555 0.235629
0.884755 0.447555 0.235629
1.000000 0.447555 0.235629
0.000000 0.656477 0.235629
0.303887 0.656477 0.235629
0.523543 0.656477 0.235629
0.712648 0.656477 0.235629
0.884755 0.656477 0.235629
1.000000 0.656477 0.235629
0.000000 0.858881 0.235629
0.303887 0.858881 0.235629
0.523543 0.858881 0.235629
0.712648 0.858881 0.235629
0.884755 0.858881 0.235629
1.000000 0.858881 0.235629
0.000000 1.000000 0.235629
0.303887 1.000000 0.235629
0.523543 1.000000 0.235629
0.712648 1.000000 0.235629
0.884755 1.000000 0.235629
1.000000 1.000000 0.235629
0.000000 0.000000 0.455962
0.303887 0.000000 0.455962
0.523543 0.000000 0.455962
0.712648 0.000000 0.455962
0.884755 0.000000 0.455962
1.000000 0.000000 0.455962
0.000000 0.227702 0.455962
0.303887 0.227702 0.455962
0.523543 0.227702 0.455962
0.712648 0.227702 0.455962
0.884755 0.227702 0.455962
1.000000 0.227702 0.455962
0.000000 0.447555 0.455962
0.303887 0.447555 0.455962
0.523543 0.447555 0.455962
0.712648 0.447555 0.455962
0.884755 0.447555 0.455962
1.000000 0.447555 0.455962
0.000000 0.656477 0.455962
0.303887 0.656477 0.455962
0.523543 0.656477 0.455962
0.712648 0.656477 0.455962
0.884755 0.656477 0.455962
1.000000 0.656477 0.455962
0.000000 0.858881 0.455962
0.303887 0.858881 0.455962
0.523543 0.858881 0.455962
0.712648 0.858881 0.455962
0.884755 0.858881 0.455962
1.000000 0.858881 0.455962
0.000000 1.000000 0.455962
0.303887 1.000000 0.455962
0.523543 1.000000 0.455962
0.712648 1.000000 0.455962
0.884755 1.000000 0.455962
1.000000 1.000000 0.455962
0.000000 0.000000 0.662939
0.303887 0.000000 0.662939
0.523543 0.000000 0.662939
0.712648 0.000000 0.662939
0.884755 0.000000 0.662939
1.000000 0.000000 0.662939
0.000000 0.227702 0.662939
0.303887 0.227702 0.662939
0.523543 0.227702 0.662939
0.712648 0.227702 0.662939
0.884755 0.227702 0.662939
1.000000 0.227702 0.662939
0.000000 0.447555 0.662939
0.303887 0.447555 0.662939
0.523543 0.447555 0.662939
0.712648 0.447555 0.662939
0.884755 0.447555 0.662939
1.000000 0.447555 0.662939
0.000000 0.656477 0.662939
0.303887 0.656477 0.662939
0.523543 0.656477 0.662939
0.712648 0.656477 0.662939
0.884755 0.656477 0.662939
1.000000 0.656477 0.662939
0.000000 0.858881 0.662939
0.303887 0.858881 0.662939
0.523543 0.858881 0.662939
0.712648 0.858881 0.662939
0.884755 0.858881 0.662939
1.000000 0.858881 0.662939
0.000000 1.000000 0.662939
0.303887 1.000000 0.662939
0.523543 1.000000 0.662939
0.712648 1.000000 0.662939
0.884755 1.000000 0.662939
1.000000 1.000000 0.662939
0.000000 0.000000 0.861916
0.303887 0.000000 0.861916
0.523543 0.000000 0.861916
0.712648 0.000000 0.861916
0.884755 0.000000 0.861916
1.000000 0.000000 0.861916
0.000000 0.227702 0.861916
0.303887 0.227702 0.861916
0.523543 0.227702 0.861916
0.712648 0.227702 0.861916
0.884755 0.227702 0.861916
1.000000 0.227702 0.861916
0.000000 0.447555 0.861916
0.303887 0.447555 0.861916
0.523543 0.447555 0.861916
0.712648 0.447555 0.861916
0.884755 0.447555 0.861916
1.000000 0.447555 0.861916
0.000000 0.656477 0.861916
0.303887 0.656477 0.861916
0.523543 0.656477 0.861916
0.712648 0.656477 0.861916
0.884755 0.656477 0.861916
1.000000 0.656477 0.861916
0.000000 0.858881 0.861916
0.303887 0.858881 0.861916
0.523543 0.858881 0.861916
0.712648 0.858881 0.861916
0.884755 0.858881 0.861916
1.000000 0.858881 0.861916
0.000000 1.000000 0.861916
0.303887 1.000000 0.861916
0.523543 1.000000 0.861916
0.712648 1.000000 0.861916
0.884755 1.000000 0.861916
1.000000 1.000000 0.861916
0.000000 0.000000 1.000000
0.303887 0.000000 1.000000
0.523543 0.000000 1.000000
0.712648 0.000000 1.000000
0.884755 0.000000 1.000000
1.000000 0.000000 1.000000
0.000000 0.227702 1.000000
0.303887 0.227702 1.000000
0.523543 0.227702 1.000000
0.712648 0.227702 1.000000
0.884755 0.227702 1.000000
1.000000 0.227702 1.000000
0.000000 0.447555 1.000000
0.303887 0.447555 1.000000
0.523543 0.447555 1.000000
0.712648 0.447555 1.000000
0.884755 0.447555 1.000000
1.000000 0.447555 1.000000
0.000000 0.656477 1.000000
0.303887 0.656477 1.000000
0.523543 0.656477 1.000000
0.712648 0.656477 1.000000
0.884755 0.656477 1.000000
1.000000 0.656477 1.000000
0.000000 0.858881 1.000000
0.303887 0.858881 1.000000
0.523543 0.858881 1.000000
0.712648 0.858881 1.000000
0.884755 0.858881 1.000000
1.000000 0.858881 1.000000
0.000000 1.000000 1.000000
0.303887 1.000000 1.000000
0.523543 1.000000 1.000000
0.712648 1.000000 1.000000
0.884755 1.000000 1.000000
1.000000 1.000000 1.000000
