newtry.cube
LUT_3D_SIZE 16
0.000000 0.000000 0.000000
0.118878 0.000000 0.000000
0.217244 0.000000 0.000000
0.303887 0.000000 0.000000
0.382139 0.000000 0.000000
0.454860 0.000000 0.000000
0.523543 0.000000 0.000000
0.589036 0.000000 0.000000
0.651910 0.000000 0.000000
0.712648 0.000000 0.000000
0.771599 0.000000 0.000000
0.828858 0.000000 0.000000
0.884755 0.000000 0.000000
0.938935 0.000000 0.000000
0.980388 0.000000 0.000000
1.000000 0.000000 0.000000
0.000000 0.070955 0.000000
0.118878 0.070955 0.000000
0.217244 0.070955 0.000000
0.303887 0.070955 0.000000
0.382139 0.070955 0.000000
0.454860 0.070955 0.000000
0.523543 0.070955 0.000000
0.589036 0.070955 0.000000
0.651910 0.070955 0.000000
0.712648 0.070955 0.000000
0.771599 0.070955 0.000000
0.828858 0.070955 0.000000
0.884755 0.070955 0.000000
0.938935 0.070955 0.000000
0.980388 0.070955 0.000000
1.000000 0.070955 0.000000
0.000000 0.150069 0.000000
0.118878 0.150069 0.000000
0.217244 0.150069 0.000000
0.303887 0.150069 0.000000
0.382139 0.150069 0.000000
0.454860 0.150069 0.000000
0.523543 0.150069 0.000000
0.589036 0.150069 0.000000
0.651910 0.150069 0.000000
0.712648 0.150069 0.000000
0.771599 0.150069 0.000000
0.828858 0.150069 0.000000
0.884755 0.150069 0.000000
0.938935 0.150069 0.000000
0.980388 0.150069 0.000000
1.000000 0.150069 0.000000
0.000000 0.227702 0.000000
0.118878 0.227702 0.000000
0.217244 0.227702 0.000000
0.303887 0.227702 0.000000
0.382139 0.227702 0.000000
0.454860 0.227702 0.000000
0.523543 0.227702 0.000000
0.589036 0.227702 0.000000
0.651910 0.227702 0.000000
0.712648 0.227702 0.000000
0.771599 0.227702 0.000000
0.828858 0.227702 0.000000
0.884755 0.227702 0.000000
0.938935 0.227702 0.000000
0.980388 0.227702 0.000000
1.000000 0.227702 0.000000
0.000000 0.302671 0.000000
0.118878 0.302671 0.000000
0.217244 0.302671 0.000000
0.303887 0.302671 0.000000
0.382139 0.302671 0.000000
0.454860 0.302671 0.000000
0.523543 0.302671 0.000000
0.589036 0.302671 0.000000
0.651910 0.302671 0.000000
0.712648 0.302671 0.000000
0.771599 0.302671 0.000000
0.828858 0.302671 0.000000
0.884755 0.302671 0.000000
0.938935 0.302671 0.000000
0.980388 0.302671 0.000000
1.000000 0.302671 0.000000
0.000000 0.375800 0.000000
0.118878 0.375800 0.000000
0.217244 0.375800 0.000000
0.303887 0.375800 0.000000
0.382139 0.375800 0.000000
0.454860 0.375800 0.000000
0.523543 0.375800 0.000000
0.589036 0.375800 0.000000
0.651910 0.375800 0.000000
0.712648 0.375800 0.000000
0.771599 0.375800 0.000000
0.828858 0.375800 0.000000
0.884755 0.375800 0.000000
0.938935 0.375800 0.000000
0.980388 0.375800 0.000000
1.000000 0.375800 0.000000
0.000000 0.447555 0.000000
0.118878 0.447555 0.000000
0.217244 0.447555 0.000000
0.303887 0.447555 0.000000
0.382139 0.447555 0.000000
0.454860 0.447555 0.000000
0.523543 0.447555 0.000000
0.589036 0.447555 0.000000
0.651910 0.447555 0.000000
0.712648 0.447555 0.000000
0.771599 0.447555 0.000000
0.828858 0.447555 0.000000
0.884755 0.447555 0.000000
0.938935 0.447555 0.000000
0.980388 0.447555 0.000000
1.000000 0.447555 0.000000
0.000000 0.518147 0.000000
0.118878 0.518147 0.000000
0.217244 0.518147 0.000000
0.303887 0.518147 0.000000
0.382139 0.518147 0.000000
0.454860 0.518147 0.000000
0.523543 0.518147 0.000000
0.589036 0.518147 0.000000
0.651910 0.518147 0.000000
0.712648 0.518147 0.000000
0.771599 0.518147 0.000000
0.828858 0.518147 0.000000
0.884755 0.518147 0.000000
0.938935 0.518147 0.000000
0.980388 0.518147 0.000000
1.000000 0.518147 0.000000
0.000000 0.587681 0.000000
0.118878 0.587681 0.000000
0.217244 0.587681 0.000000
0.303887 0.587681 0.000000
0.382139 0.587681 0.000000
0.454860 0.587681 0.000000
0.523543 0.587681 0.000000
0.589036 0.587681 0.000000
0.651910 0.587681 0.000000
0.712648 0.587681 0.000000
0.771599 0.587681 0.000000
0.828858 0.587681 0.000000
0.884755 0.587681 0.000000
0.938935 0.587681 0.000000
0.980388 0.587681 0.000000
1.000000 0.587681 0.000000
0.000000 0.656477 0.000000
0.118878 0.656477 0.000000
0.217244 0.656477 0.000000
0.303887 0.656477 0.000000
0.382139 0.656477 0.000000
0.454860 0.656477 0.000000
0.523543 0.656477 0.000000
0.589036 0.656477 0.000000
0.651910 0.656477 0.000000
0.712648 0.656477 0.000000
0.771599 0.656477 0.000000
0.828858 0.656477 0.000000
0.884755 0.656477 0.000000
0.938935 0.656477 0.000000
0.980388 0.656477 0.000000
1.000000 0.656477 0.000000
0.000000 0.724608 0.000000
0.118878 0.724608 0.000000
0.217244 0.724608 0.000000
0.303887 0.724608 0.000000
0.382139 0.724608 0.000000
0.454860 0.724608 0.000000
0.523543 0.724608 0.000000
0.589036 0.724608 0.000000
0.651910 0.724608 0.000000
0.712648 0.724608 0.000000
0.771599 0.724608 0.000000
0.828858 0.724608 0.000000
0.884755 0.724608 0.000000
0.938935 0.724608 0.000000
0.980388 0.724608 0.000000
1.000000 0.724608 0.000000
0.000000 0.791985 0.000000
0.118878 0.791985 0.000000
0.217244 0.791985 0.000000
0.303887 0.791985 0.000000
0.382139 0.791985 0.000000
0.454860 0.791985 0.000000
0.523543 0.791985 0.000000
0.589036 0.791985 0.000000
0.651910 0.791985 0.000000
0.712648 0.791985 0.000000
0.771599 0.791985 0.000000
0.828858 0.791985 0.000000
0.884755 0.791985 0.000000
0.938935 0.791985 0.000000
0.980388 0.791985 0.000000
1.000000 0.791985 0.000000
0.000000 0.858881 0.000000
0.118878 0.858881 0.000000
0.217244 0.858881 0.000000
0.303887 0.858881 0.000000
0.382139 0.858881 0.000000
0.454860 0.858881 0.000000
0.523543 0.858881 0.000000
0.589036 0.858881 0.000000
0.651910 0.858881 0.000000
0.712648 0.858881 0.000000
0.771599 0.858881 0.000000
0.828858 0.858881 0.000000
0.884755 0.858881 0.000000
0.938935 0.858881 0.000000
0.980388 0.858881 0.000000
1.000000 0.858881 0.000000
0.000000 0.924661 0.000000
0.118878 0.924661 0.000000
0.217244 0.924661 0.000000
0.303887 0.924661 0.000000
0.382139 0.924661 0.000000
0.454860 0.924661 0.000000
0.523543 0.924661 0.000000
0.589036 0.924661 0.000000
0.651910 0.924661 0.000000
0.712648 0.924661 0.000000
0.771599 0.924661 0.000000
0.828858 0.924661 0.000000
0.884755 0.924661 0.000000
0.938935 0.924661 0.000000
0.980388 0.924661 0.000000
1.000000 0.924661 0.000000
0.000000 0.975722 0.000000
0.118878 0.975722 0.000000
0.217244 0.975722 0.000000
0.303887 0.975722 0.000000
0.382139 0.975722 0.000000
0.454860 0.975722 0.000000
0.523543 0.975722 0.000000
0.589036 0.975722 0.000000
0.651910 0.975722 0.000000
0.712648 0.975722 0.000000
0.771599 0.975722 0.000000
0.828858 0.975722 0.000000
0.884755 0.975722 0.000000
0.938935 0.975722 0.000000
0.980388 0.975722 0.000000
1.000000 0.975722 0.000000
0.000000 1.000000 0.000000
0.118878 1.000000 0.000000
0.217244 1.000000 0.000000
0.303887 1.000000 0.000000
0.382139 1.000000 0.000000
0.454860 1.000000 0.000000
0.523543 1.000000 0.000000
0.589036 1.000000 0.000000
0.651910 1.000000 0.000000
0.712648 1.000000 0.000000
0.771599 1.000000 0.000000
0.828858 1.000000 0.000000
0.884755 1.000000 0.000000
0.938935 1.000000 0.000000
0.980388 1.000000 0.000000
1.000000 1.000000 0.000000
0.000000 0.000000 0.075437
0.118878 0.000000 0.075437
0.217244 0.000000 0.075437
0.303887 0.000000 0.075437
0.382139 0.000000 0.075437
0.454860 0.000000 0.075437
0.523543 0.000000 0.075437
0.589036 0.000000 0.075437
0.651910 0.000000 0.075437
0.712648 0.000000 0.075437
0.771599 0.000000 0.075437
0.828858 0.000000 0.075437
0.884755 0.000000 0.075437
0.938935 0.000000 0.075437
0.980388 0.000000 0.075437
1.000000 0.000000 0.075437
0.000000 0.070955 0.075437
0.118878 0.070955 0.075437
0.217244 0.070955 0.075437
0.303887 0.070955 0.075437
0.382139 0.070955 0.075437
0.454860 0.070955 0.075437
0.523543 0.070955 0.075437
0.589036 0.070955 0.075437
0.651910 0.070955 0.075437
0.712648 0.070955 0.075437
0.771599 0.070955 0.075437
0.828858 0.070955 0.075437
0.884755 0.070955 0.075437
0.938935 0.070955 0.075437
0.980388 0.070955 0.075437
1.000000 0.070955 0.075437
0.000000 0.150069 0.075437
0.118878 0.150069 0.075437
0.217244 0.150069 0.075437
0.303887 0.150069 0.075437
0.382139 0.150069 0.075437
0.454860 0.150069 0.075437
0.523543 0.150069 0.075437
0.589036 0.150069 0.075437
0.651910 0.150069 0.075437
0.712648 0.150069 0.075437
0.771599 0.150069 0.075437
0.828858 0.150069 0.075437
0.884755 0.150069 0.075437
0.938935 0.150069 0.075437
0.980388 0.150069 0.075437
1.000000 0.150069 0.075437
0.000000 0.227702 0.075437
0.118878 0.227702 0.075437
0.217244 0.227702 0.075437
0.303887 0.227702 0.075437
0.382139 0.227702 0.075437
0.454860 0.227702 0.075437
0.523543 0.227702 0.075437
0.589036 0.227702 0.075437
0.651910 0.227702 0.075437
0.712648 0.227702 0.075437
0.771599 0.227702 0.075437
0.828858 0.227702 0.075437
0.884755 0.227702 0.075437
0.938935 0.227702 0.075437
0.980388 0.227702 0.075437
1.000000 0.227702 0.075437
0.000000 0.302671 0.075437
0.118878 0.302671 0.075437
0.217244 0.302671 0.075437
0.303887 0.302671 0.075437
0.382139 0.302671 0.075437
0.454860 0.302671 0.075437
0.523543 0.302671 0.075437
0.589036 0.302671 0.075437
0.651910 0.302671 0.075437
0.712648 0.302671 0.075437
0.771599 0.302671 0.075437
0.828858 0.302671 0.075437
0.884755 0.302671 0.075437
0.938935 0.302671 0.075437
0.980388 0.302671 0.075437
1.000000 0.302671 0.075437
0.000000 0.375800 0.075437
0.118878 0.375800 0.075437
0.217244 0.375800 0.075437
0.303887 0.375800 0.075437
0.382139 0.375800 0.075437
0.454860 0.375800 0.075437
0.523543 0.375800 0.075437
0.589036 0.375800 0.075437
0.651910 0.375800 0.075437
0.712648 0.375800 0.075437
0.771599 0.375800 0.075437
0.828858 0.375800 0.075437
0.884755 0.375800 0.075437
0.938935 0.375800 0.075437
0.980388 0.375800 0.075437
1.000000 0.375800 0.075437
0.000000 0.447555 0.075437
0.118878 0.447555 0.075437
0.217244 0.447555 0.075437
0.303887 0.447555 0.075437
0.382139 0.447555 0.075437
0.454860 0.447555 0.075437
0.523543 0.447555 0.075437
0.589036 0.447555 0.075437
0.651910 0.447555 0.075437
0.712648 0.447555 0.075437
0.771599 0.447555 0.075437
0.828858 0.447555 0.075437
0.884755 0.447555 0.075437
0.938935 0.447555 0.075437
0.980388 0.447555 0.075437
1.000000 0.447555 0.075437
0.000000 0.518147 0.075437
0.118878 0.518147 0.075437
0.217244 0.518147 0.075437
0.303887 0.518147 0.075437
0.382139 0.518147 0.075437
0.454860 0.518147 0.075437
0.523543 0.518147 0.075437
0.589036 0.518147 0.075437
0.651910 0.518147 0.075437
0.712648 0.518147 0.075437
0.771599 0.518147 0.075437
0.828858 0.518147 0.075437
0.884755 0.518147 0.075437
0.938935 0.518147 0.075437
0.980388 0.518147 0.075437
1.000000 0.518147 0.075437
0.000000 0.587681 0.075437
0.118878 0.587681 0.075437
0.217244 0.587681 0.075437
0.303887 0.587681 0.075437
0.382139 0.587681 0.075437
0.454860 0.587681 0.075437
0.523543 0.587681 0.075437
0.589036 0.587681 0.075437
0.651910 0.587681 0.075437
0.712648 0.587681 0.075437
0.771599 0.587681 0.075437
0.828858 0.587681 0.075437
0.884755 0.587681 0.075437
0.938935 0.587681 0.075437
0.980388 0.587681 0.075437
1.000000 0.587681 0.075437
0.000000 0.656477 0.075437
0.118878 0.656477 0.075437
0.217244 0.656477 0.075437
0.303887 0.656477 0.075437
0.382139 0.656477 0.075437
0.454860 0.656477 0.075437
0.523543 0.656477 0.075437
0.589036 0.656477 0.075437
0.651910 0.656477 0.075437
0.712648 0.656477 0.075437
0.771599 0.656477 0.075437
0.828858 0.656477 0.075437
0.884755 0.656477 0.075437
0.938935 0.656477 0.075437
0.980388 0.656477 0.075437
1.000000 0.656477 0.075437
0.000000 0.724608 0.075437
0.118878 0.724608 0.075437
0.217244 0.724608 0.075437
0.303887 0.724608 0.075437
0.382139 0.724608 0.075437
0.454860 0.724608 0.075437
0.523543 0.724608 0.075437
0.589036 0.724608 0.075437
0.651910 0.724608 0.075437
0.712648 0.724608 0.075437
0.771599 0.724608 0.075437
0.828858 0.724608 0.075437
0.884755 0.724608 0.075437
0.938935 0.724608 0.075437
0.980388 0.724608 0.075437
1.000000 0.724608 0.075437
0.000000 0.791985 0.075437
0.118878 0.791985 0.075437
0.217244 0.791985 0.075437
0.303887 0.791985 0.075437
0.382139 0.791985 0.075437
0.454860 0.791985 0.075437
0.523543 0.791985 0.075437
0.589036 0.791985 0.075437
0.651910 0.791985 0.075437
0.712648 0.791985 0.075437
0.771599 0.791985 0.075437
0.828858 0.791985 0.075437
0.884755 0.791985 0.075437
0.938935 0.791985 0.075437
0.980388 0.791985 0.075437
1.000000 0.791985 0.075437
0.000000 0.858881 0.075437
0.118878 0.858881 0.075437
0.217244 0.858881 0.075437
0.303887 0.858881 0.075437
0.382139 0.858881 0.075437
0.454860 0.858881 0.075437
0.523543 0.858881 0.075437
0.589036 0.858881 0.075437
0.651910 0.858881 0.075437
0.712648 0.858881 0.075437
0.771599 0.858881 0.075437
0.828858 0.858881 0.075437
0.884755 0.858881 0.075437
0.938935 0.858881 0.075437
0.980388 0.858881 0.075437
1.000000 0.858881 0.075437
0.000000 0.924661 0.075437
0.118878 0.924661 0.075437
0.217244 0.924661 0.075437
0.303887 0.924661 0.075437
0.382139 0.924661 0.075437
0.454860 0.924661 0.075437
0.523543 0.924661 0.075437
0.589036 0.924661 0.075437
0.651910 0.924661 0.075437
0.712648 0.924661 0.075437
0.771599 0.924661 0.075437
0.828858 0.924661 0.075437
0.884755 0.924661 0.075437
0.938935 0.924661 0.075437
0.980388 0.924661 0.075437
1.000000 0.924661 0.075437
0.000000 0.975722 0.075437
0.118878 0.975722 0.075437
0.217244 0.975722 0.075437
0.303887 0.975722 0.075437
0.382139 0.975722 0.075437
0.454860 0.975722 0.075437
0.523543 0.975722 0.075437
0.589036 0.975722 0.075437
0.651910 0.975722 0.075437
0.712648 0.975722 0.075437
0.771599 0.975722 0.075437
0.828858 0.975722 0.075437
0.884755 0.975722 0.075437
0.938935 0.975722 0.075437
0.980388 0.975722 0.075437
1.000000 0.975722 0.075437
0.000000 1.000000 0.075437
0.118878 1.000000 0.075437
0.217244 1.000000 0.075437
0.303887 1.000000 0.075437
0.382139 1.000000 0.075437
0.454860 1.000000 0.075437
0.523543 1.000000 0.075437
0.589036 1.000000 0.075437
0.651910 1.000000 0.075437
0.712648 1.000000 0.075437
0.771599 1.000000 0.075437
0.828858 1.000000 0.075437
0.884755 1.000000 0.075437
0.938935 1.000000 0.075437
0.980388 1.000000 0.075437
1.000000 1.000000 0.075437
0.000000 0.000000 0.156809
0.118878 0.000000 0.156809
0.217244 0.000000 0.156809
0.303887 0.000000 0.156809
0.382139 0.000000 0.156809
0.454860 0.000000 0.156809
0.523543 0.000000 0.156809
0.589036 0.000000 0.156809
0.651910 0.000000 0.156809
0.712648 0.000000 0.156809
0.771599 0.000000 0.156809
0.828858 0.000000 0.156809
0.884755 0.000000 0.156809
0.938935 0.000000 0.156809
0.980388 0.000000 0.156809
1.000000 0.000000 0.156809
0.000000 0.070955 0.156809
0.118878 0.070955 0.156809
0.217244 0.070955 0.156809
0.303887 0.070955 0.156809
0.382139 0.070955 0.156809
0.454860 0.070955 0.156809
0.523543 0.070955 0.156809
0.589036 0.070955 0.156809
0.651910 0.070955 0.156809
0.712648 0.070955 0.156809
0.771599 0.070955 0.156809
0.828858 0.070955 0.156809
0.884755 0.070955 0.156809
0.938935 0.070955 0.156809
0.980388 0.070955 0.156809
1.000000 0.070955 0.156809
0.000000 0.150069 0.156809
0.118878 0.150069 0.156809
0.217244 0.150069 0.156809
0.303887 0.150069 0.156809
0.382139 0.150069 0.156809
0.454860 0.150069 0.156809
0.523543 0.150069 0.156809
0.589036 0.150069 0.156809
0.651910 0.150069 0.156809
0.712648 0.150069 0.156809
0.771599 0.150069 0.156809
0.828858 0.150069 0.156809
0.884755 0.150069 0.156809
0.938935 0.150069 0.156809
0.980388 0.150069 0.156809
1.000000 0.150069 0.156809
0.000000 0.227702 0.156809
0.118878 0.227702 0.156809
0.217244 0.227702 0.156809
0.303887 0.227702 0.156809
0.382139 0.227702 0.156809
0.454860 0.227702 0.156809
0.523543 0.227702 0.156809
0.589036 0.227702 0.156809
0.651910 0.227702 0.156809
0.712648 0.227702 0.156809
0.771599 0.227702 0.156809
0.828858 0.227702 0.156809
0.884755 0.227702 0.156809
0.938935 0.227702 0.156809
0.980388 0.227702 0.156809
1.000000 0.227702 0.156809
0.000000 0.302671 0.156809
0.118878 0.302671 0.156809
0.217244 0.302671 0.156809
0.303887 0.302671 0.156809
0.382139 0.302671 0.156809
0.454860 0.302671 0.156809
0.523543 0.302671 0.156809
0.589036 0.302671 0.156809
0.651910 0.302671 0.156809
0.712648 0.302671 0.156809
0.771599 0.302671 0.156809
0.828858 0.302671 0.156809
0.884755 0.302671 0.156809
0.938935 0.302671 0.156809
0.980388 0.302671 0.156809
1.000000 0.302671 0.156809
0.000000 0.375800 0.156809
0.118878 0.375800 0.156809
0.217244 0.375800 0.156809
0.303887 0.375800 0.156809
0.382139 0.375800 0.156809
0.454860 0.375800 0.156809
0.523543 0.375800 0.156809
0.589036 0.375800 0.156809
0.651910 0.375800 0.156809
0.712648 0.375800 0.156809
0.771599 0.375800 0.156809
0.828858 0.375800 0.156809
0.884755 0.375800 0.156809
0.938935 0.375800 0.156809
0.980388 0.375800 0.156809
1.000000 0.375800 0.156809
0.000000 0.447555 0.156809
0.118878 0.447555 0.156809
0.217244 0.447555 0.156809
0.303887 0.447555 0.156809
0.382139 0.447555 0.156809
0.454860 0.447555 0.156809
0.523543 0.447555 0.156809
0.589036 0.447555 0.156809
0.651910 0.447555 0.156809
0.712648 0.447555 0.156809
0.771599 0.447555 0.156809
0.828858 0.447555 0.156809
0.884755 0.447555 0.156809
0.938935 0.447555 0.156809
0.980388 0.447555 0.156809
1.000000 0.447555 0.156809
0.000000 0.518147 0.156809
0.118878 0.518147 0.156809
0.217244 0.518147 0.156809
0.303887 0.518147 0.156809
0.382139 0.518147 0.156809
0.454860 0.518147 0.156809
0.523543 0.518147 0.156809
0.589036 0.518147 0.156809
0.651910 0.518147 0.156809
0.712648 0.518147 0.156809
0.771599 0.518147 0.156809
0.828858 0.518147 0.156809
0.884755 0.518147 0.156809
0.938935 0.518147 0.156809
0.980388 0.518147 0.156809
1.000000 0.518147 0.156809
0.000000 0.587681 0.156809
0.118878 0.587681 0.156809
0.217244 0.587681 0.156809
0.303887 0.587681 0.156809
0.382139 0.587681 0.156809
0.454860 0.587681 0.156809
0.523543 0.587681 0.156809
0.589036 0.587681 0.156809
0.651910 0.587681 0.156809
0.712648 0.587681 0.156809
0.771599 0.587681 0.156809
0.828858 0.587681 0.156809
0.884755 0.587681 0.156809
0.938935 0.587681 0.156809
0.980388 0.587681 0.156809
1.000000 0.587681 0.156809
0.000000 0.656477 0.156809
0.118878 0.656477 0.156809
0.217244 0.656477 0.156809
0.303887 0.656477 0.156809
0.382139 0.656477 0.156809
0.454860 0.656477 0.156809
0.523543 0.656477 0.156809
0.589036 0.656477 0.156809
0.651910 0.656477 0.156809
0.712648 0.656477 0.156809
0.771599 0.656477 0.156809
0.828858 0.656477 0.156809
0.884755 0.656477 0.156809
0.938935 0.656477 0.156809
0.980388 0.656477 0.156809
1.000000 0.656477 0.156809
0.000000 0.724608 0.156809
0.118878 0.724608 0.156809
0.217244 0.724608 0.156809
0.303887 0.724608 0.156809
0.382139 0.724608 0.156809
0.454860 0.724608 0.156809
0.523543 0.724608 0.156809
0.589036 0.724608 0.156809
0.651910 0.724608 0.156809
0.712648 0.724608 0.156809
0.771599 0.724608 0.156809
0.828858 0.724608 0.156809
0.884755 0.724608 0.156809
0.938935 0.724608 0.156809
0.980388 0.724608 0.156809
1.000000 0.724608 0.156809
0.000000 0.791985 0.156809
0.118878 0.791985 0.156809
0.217244 0.791985 0.156809
0.303887 0.791985 0.156809
0.382139 0.791985 0.156809
0.454860 0.791985 0.156809
0.523543 0.791985 0.156809
0.589036 0.791985 0.156809
0.651910 0.791985 0.156809
0.712648 0.791985 0.156809
0.771599 0.791985 0.156809
0.828858 0.791985 0.156809
0.884755 0.791985 0.156809
0.938935 0.791985 0.156809
0.980388 0.791985 0.156809
1.000000 0.791985 0.156809
0.000000 0.858881 0.156809
0.118878 0.858881 0.156809
0.217244 0.858881 0.156809
0.303887 0.858881 0.156809
0.382139 0.858881 0.156809
0.454860 0.858881 0.156809
0.523543 0.858881 0.156809
0.589036 0.858881 0.156809
0.651910 0.858881 0.156809
0.712648 0.858881 0.156809
0.771599 0.858881 0.156809
0.828858 0.858881 0.156809
0.884755 0.858881 0.156809
0.938935 0.858881 0.156809
0.980388 0.858881 0.156809
1.000000 0.858881 0.156809
0.000000 0.924661 0.156809
0.118878 0.924661 0.156809
0.217244 0.924661 0.156809
0.303887 0.924661 0.156809
0.382139 0.924661 0.156809
0.454860 0.924661 0.156809
0.523543 0.924661 0.156809
0.589036 0.924661 0.156809
0.651910 0.924661 0.156809
0.712648 0.924661 0.156809
0.771599 0.924661 0.156809
0.828858 0.924661 0.156809
0.884755 0.924661 0.156809
0.938935 0.924661 0.156809
0.980388 0.924661 0.156809
1.000000 0.924661 0.156809
0.000000 0.975722 0.156809
0.118878 0.975722 0.156809
0.217244 0.975722 0.156809
0.303887 0.975722 0.156809
0.382139 0.975722 0.156809
0.454860 0.975722 0.156809
0.523543 0.975722 0.156809
0.589036 0.975722 0.156809
0.651910 0.975722 0.156809
0.712648 0.975722 0.156809
0.771599 0.975722 0.156809
0.828858 0.975722 0.156809
0.884755 0.975722 0.156809
0.938935 0.975722 0.156809
0.980388 0.975722 0.156809
1.000000 0.975722 0.156809
0.000000 1.000000 0.156809
0.118878 1.000000 0.156809
0.217244 1.000000 0.156809
0.303887 1.000000 0.156809
0.382139 1.000000 0.156809
0.454860 1.000000 0.156809
0.523543 1.000000 0.156809
0.589036 1.000000 0.156809
0.651910 1.000000 0.156809
0.712648 1.000000 0.156809
0.771599 1.000000 0.156809
0.828858 1.000000 0.156809
0.884755 1.000000 0.156809
0.938935 1.000000 0.156809
0.980388 1.000000 0.156809
1.000000 1.000000 0.156809
0.000000 0.000000 0.235629
0.118878 0.000000 0.235629
0.217244 0.000000 0.235629
0.303887 0.000000 0.235629
0.382139 0.000000 0.235629
0.454860 0.000000 0.235629
0.523543 0.000000 0.235629
0.589036 0.000000 0.235629
0.651910 0.000000 0.235629
0.712648 0.000000 0.235629
0.771599 0.000000 0.235629
0.828858 0.000000 0.235629
0.884755 0.000000 0.235629
0.938935 0.000000 0.235629
0.980388 0.000000 0.235629
1.000000 0.000000 0.235629
0.000000 0.070955 0.235629
0.118878 0.070955 0.235629
0.217244 0.070955 0.235629
0.303887 0.070955 0.235629
0.382139 0.070955 0.235629
0.454860 0.070955 0.235629
0.523543 0.070955 0.235629
0.589036 0.070955 0.235629
0.651910 0.070955 0.235629
0.712648 0.070955 0.235629
0.771599 0.070955 0.235629
0.828858 0.070955 0.235629
0.884755 0.070955 0.235629
0.938935 0.070955 0.235629
0.980388 0.070955 0.235629
1.000000 0.070955 0.235629
0.000000 0.150069 0.235629
0.118878 0.150069 0.235629
0.217244 0.150069 0.235629
0.303887 0.150069 0.235629
0.382139 0.150069 0.235629
0.454860 0.150069 0.235629
0.523543 0.150069 0.235629
0.589036 0.150069 0.235629
0.651910 0.150069 0.235629
0.712648 0.150069 0.235629
0.771599 0.150069 0.235629
0.828858 0.150069 0.235629
0.884755 0.150069 0.235629
0.938935 0.150069 0.235629
0.980388 0.150069 0.235629
1.000000 0.150069 0.235629
0.000000 0.227702 0.235629
0.118878 0.227702 0.235629
0.217244 0.227702 0.235629
0.303887 0.227702 0.235629
0.382139 0.227702 0.235629
0.454860 0.227702 0.235629
0.523543 0.227702 0.235629
0.589036 0.227702 0.235629
0.651910 0.227702 0.235629
0.712648 0.227702 0.235629
0.771599 0.227702 0.235629
0.828858 0.227702 0.235629
0.884755 0.227702 0.235629
0.938935 0.227702 0.235629
0.980388 0.227702 0.235629
1.000000 0.227702 0.235629
0.000000 0.302671 0.235629
0.118878 0.302671 0.235629
0.217244 0.302671 0.235629
0.303887 0.302671 0.235629
0.382139 0.302671 0.235629
0.454860 0.302671 0.235629
0.523543 0.302671 0.235629
0.589036 0.302671 0.235629
0.651910 0.302671 0.235629
0.712648 0.302671 0.235629
0.771599 0.302671 0.235629
0.828858 0.302671 0.235629
0.884755 0.302671 0.235629
0.938935 0.302671 0.235629
0.980388 0.302671 0.235629
1.000000 0.302671 0.235629
0.000000 0.375800 0.235629
0.118878 0.375800 0.235629
0.217244 0.375800 0.235629
0.303887 0.375800 0.235629
0.382139 0.375800 0.235629
0.454860 0.375800 0.235629
0.523543 0.375800 0.235629
0.589036 0.375800 0.235629
0.651910 0.375800 0.235629
0.712648 0.375800 0.235629
0.771599 0.375800 0.235629
0.828858 0.375800 0.235629
0.884755 0.375800 0.235629
0.938935 0.375800 0.235629
0.980388 0.375800 0.235629
1.000000 0.375800 0.235629
0.000000 0.447555 0.235629
0.118878 0.447555 0.235629
0.217244 0.447555 0.235629
0.303887 0.447555 0.235629
0.382139 0.447555 0.235629
0.454860 0.447555 0.235629
0.523543 0.447555 0.235629
0.589036 0.447555 0.235629
0.651910 0.447555 0.235629
0.712648 0.447555 0.235629
0.771599 0.447555 0.235629
0.828858 0.447555 0.235629
0.884755 0.447555 0.235629
0.938935 0.447555 0.235629
0.980388 0.447555 0.235629
1.000000 0.447555 0.235629
0.000000 0.518147 0.235629
0.118878 0.518147 0.235629
0.217244 0.518147 0.235629
0.303887 0.518147 0.235629
0.382139 0.518147 0.235629
0.454860 0.518147 0.235629
0.523543 0.518147 0.235629
0.589036 0.518147 0.235629
